!!!!SEGMENT: pl-cz--iii-43--002_bogunski-baltazar--offertorio-quoniam-rex-noster.krn
!!!cenid: 18xx:690
!!!COM: Boguński, Baltazar
!!!COM-rismID: pe30024257
!!!CDT: 1762-1849
!!!CNT: Polish
!!!OPR: Offertorio
!!!OTL: Quoniam rex noster
!!!PDT:
!!!AGN: Sacred
!!!SMS-siglum: PL-CZ
!!!SMS-shelfmark: III-43
!!!SMS-shelfwork: 002 M
!!!SMS-variant:
!!!SMS-altvar:
!!!NIFC-rismSourceID: 300237594
!!!NIFC-rismChildID: 300237594
!!!NIFC-islandoraID: pl-cz:38262
!!!URL-pdf-islandora: https://repozytorium.nifc.pl/islandora/object/pl-cz%3A38262/datastream/PDF/view
!!!URL-scan: https://polish.musicsources.pl/pl/lokalizacje/galeria/rekopisy/6924/1 @EN{Scan on Polish Music Sources Website} @PL{Skany w portalu Dziedzictwo Muzyki Polskiej w otwartym dostępie}
!!!IIIF:
!!!ONB-nifc: UWAGA: części Offertorio: Elegit eum Dominus, Quoniam rex noster
!!!AIN: 1 bass 2 clars 2 cor 1 flt 1 viola 2 violn 1 vox
!!!key:
**kern	**dynam	**kern	**dynam	**kern	**dynam	**kern	**dynam	**kern	**text	**dynam	**kern	**dynam	**kern	**dynam	**kern	**dynam	**kern	**dynam	**kern	**dynam
*part10	*part10	*part9	*part9	*part8	*part8	*part7	*part7	*part6	*part6	*part6	*part5	*part5	*part4	*part4	*part3	*part3	*part2	*part2	*part1	*part1
*staff10	*	*staff9	*	*staff8	*	*staff7	*	*staff6	*staff6	*	*staff5	*	*staff4	*	*staff3	*	*staff2	*	*staff1	*
*Ibass	*	*Iviola	*	*Ivioln	*	*Ivioln	*	*Ivox	*	*	*Icor	*	*Icor	*	*Iclars	*	*Iclars	*	*Iflt	*
*I"Basso	*	*I"Viola.	*	*I"Violino 2do	*	*I"Violino 1mo	*	*I"Canto.	*	*	*I"Corno 2do in G.	*	*I"Corno 1mo in g.	*	*I"Clarinetto 2 do in C	*	*I"Clarinetto 1mo in C.	*	*I"Flauto.	*
*I'b	*	*I'vla	*	*I'vl 2	*	*I'vl 1	*	*I'S	*	*	*I'cor 2	*	*I'cor 1	*	*I'cl 2	*	*I'cl 1	*	*I'fl	*
*group5	*	*group4	*	*group4	*	*group4	*	*group3	*	*	*group2	*	*group2	*	*group1	*	*group1	*	*group1	*
*clefF4	*	*clefC3	*	*clefG2	*	*clefG2	*	*clefC1	*	*	*clefG2	*	*clefG2	*	*clefG2	*	*clefG2	*	*clefG2	*
*ITrd0c0	*	*	*	*	*	*	*	*	*	*	*ITrd3c5	*	*ITrd3c5	*	*	*	*	*	*	*
*k[f#]	*	*k[f#]	*	*k[f#]	*	*k[f#]	*	*k[f#]	*	*	*k[f#]	*	*k[f#]	*	*k[f#]	*	*k[f#]	*	*k[f#]	*
*G:	*	*G:	*	*G:	*	*G:	*	*G:	*	*	*G:	*	*G:	*	*G:	*	*G:	*	*G:	*
*M4/4	*	*M4/4	*	*M4/4	*	*M4/4	*	*M4/4	*	*	*M4/4	*	*M4/4	*	*M4/4	*	*M4/4	*	*M4/4	*
*met(c)	*	*met(c)	*	*met(c)	*	*met(c)	*	*met(c)	*	*	*met(c)	*	*met(c)	*	*met(c)	*	*met(c)	*	*met(c)	*
=1	=1	=1	=1	=1	=1	=1	=1	=1	=1	=1	=1	=1	=1	=1	=1	=1	=1	=1	=1	=1
*2\right	*	*2\right	*	*2\right	*	*2\right	*	*2\right	*	*	*2\right	*	*2\right	*	*2\right	*	*2\right	*	*2\right	*
!	!	!	!	!	!	!	!LO:DY:b:t=p&colon;	!LO:TX:a:Bi:t=Allegro.	!	!	!LO:TX:a:t=8.	!	!LO:TX:a:t=8.	!	!LO:TX:a:Bi:t=Allegro	!	!	!	!LO:TX:a:Bi:t=Allegro.	!
!LO:TX:a:Bi:t=Allegro.	!	!LO:TX:a:Bi:t=Allegro	!	!LO:TX:a:Bi:t=Allegro	!LO:DY:b	!LO:TX:a:Bi:t=Allegro.	!	!LO:TX:b:t=8.	!	!	!LO:TX:a:Bi:t=Allegro in G.	!	!LO:TX:a:Bi:t=Allegro in G.	!	!LO:TX:a:t=5.	!	!LO:TX:a:Bi:t=Allegro.	!	!	!
8GG/	.	4r	.	4r	p	4r	p	00r	.	.	00r	.	00r	.	00r	.	2r	.	2r	.
8r	.	.	.	.	.	.	.	.	.	.	.	.	.	.	.	.	.	.	.	.
4r	.	8B\	.	8d/	.	8B/ 8g	.	.	.	.	.	.	.	.	.	.	.	.	.	.
.	.	8r	.	8r	.	8r	.	.	.	.	.	.	.	.	.	.	.	.	.	.
!	!	!	!	!	!	!	!	!	!	!	!	!	!	!	!	!	!	!LO:DY:b	!	!
8GG/	.	4r	.	4r	.	4r	.	.	.	.	.	.	.	.	.	.	4r	p	4r	.
8r	.	.	.	.	.	.	.	.	.	.	.	.	.	.	.	.	.	.	.	.
4r	.	8B\	.	8d/	.	8B/ 8g	.	.	.	.	.	.	.	.	.	.	8.b\L	.	8.bb\L	.
.	.	8r	.	8r	.	8r	.	.	.	.	.	.	.	.	.	.	.	.	.	.
.	.	.	.	.	.	.	.	.	.	.	.	.	.	.	.	.	16cc\Jk	.	16ccc\Jk	.
=2	=2	=2	=2	=2	=2	=2	=2	=2	=2	=2	=2	=2	=2	=2	=2	=2	=2	=2	=2	=2
8GG/	.	4r	.	4r	.	4r	.	.	.	.	.	.	.	.	.	.	8ee\	.	8eee\	.
8r	.	.	.	.	.	.	.	.	.	.	.	.	.	.	.	.	8r	.	8r	.
4r	.	8B\	.	8d/	.	8B/ 8g	.	.	.	.	.	.	.	.	.	.	[4dd\	.	[4ddd\	.
.	.	8r	.	8r	.	8r	.	.	.	.	.	.	.	.	.	.	.	.	.	.
8D\	.	4r	.	4r	.	4r	.	.	.	.	.	.	.	.	.	.	8.dd\L]	.	8.ddd\L]	.
8r	.	.	.	.	.	.	.	.	.	.	.	.	.	.	.	.	.	.	.	.
.	.	.	.	.	.	.	.	.	.	.	.	.	.	.	.	.	16cc\K	.	16ccc\K	.
4r	.	8A\	.	8c/ 8d	.	8c/ 8f#	.	.	.	.	.	.	.	.	.	.	8.a\	.	8.aa\	.
.	.	8r	.	8r	.	8r	.	.	.	.	.	.	.	.	.	.	.	.	.	.
.	.	.	.	.	.	.	.	.	.	.	.	.	.	.	.	.	16b\Jk	.	16bb\Jk	.
!	!	!	!	!	!	!	!	!	!	!	!	!	!	!	!	!	!	!	!LO:LB:g=original	!
=3	=3	=3	=3	=3	=3	=3	=3	=3	=3	=3	=3	=3	=3	=3	=3	=3	=3	=3	=3	=3
*rep	*	*rep	*	*rep	*	*rep	*	*	*	*	*	*	*	*	*	*	*	*	*	*
8GG/	.	4r	.	4r	.	4r	.	.	.	.	.	.	.	.	.	.	2g/	.	2gg\	.
8r	.	.	.	.	.	.	.	.	.	.	.	.	.	.	.	.	.	.	.	.
4r	.	8B\	.	8d/	.	8B/ 8g	.	.	.	.	.	.	.	.	.	.	.	.	.	.
.	.	8r	.	8r	.	8r	.	.	.	.	.	.	.	.	.	.	.	.	.	.
8D\	.	4r	.	4r	.	4r	.	.	.	.	.	.	.	.	.	.	4r	.	4r	.
8r	.	.	.	.	.	.	.	.	.	.	.	.	.	.	.	.	.	.	.	.
4r	.	8A\	.	8c/ 8d	.	8c/ 8f#	.	.	.	.	.	.	.	.	.	.	8.a/L	.	8.aa\L	.
.	.	8r	.	8r	.	8r	.	.	.	.	.	.	.	.	.	.	.	.	.	.
.	.	.	.	.	.	.	.	.	.	.	.	.	.	.	.	.	16b/Jk	.	16bb\Jk	.
*Xrep	*	*Xrep	*	*Xrep	*	*Xrep	*	*	*	*	*	*	*	*	*	*	*	*	*	*
!	!	!	!	!LO:LB:g=original	!	!LO:LB:g=original	!	!	!	!	!	!	!	!	!	!	!	!	!	!
=4	=4	=4	=4	=4	=4	=4	=4	=4	=4	=4	=4	=4	=4	=4	=4	=4	=4	=4	=4	=4
4r	.	4r	.	4r	.	4r	.	.	.	.	.	.	.	.	.	.	8g/	.	8gg\	.
.	.	.	.	.	.	.	.	.	.	.	.	.	.	.	.	.	8r	.	8r	.
8GG/	.	8B\	.	8d/	.	8B/ 8g	.	.	.	.	.	.	.	.	.	.	(4g/	.	(4gg\	.
8r	.	8r	.	8r	.	8r	.	.	.	.	.	.	.	.	.	.	.	.	.	.
4r	.	4r	.	4r	.	4r	.	.	.	.	.	.	.	.	.	.	8.gg\L)	.	8.ggg\L)	.
.	.	.	.	.	.	.	.	.	.	.	.	.	.	.	.	.	16ff#\K	.	16fff#\K	.
8C\	.	8c\	.	8e/	.	8c/ 8f# 8a	.	.	.	.	.	.	.	.	.	.	8.cc\	.	8.ccc\	.
8r	.	8r	.	8r	.	8r	.	.	.	.	.	.	.	.	.	.	.	.	.	.
.	.	.	.	.	.	.	.	.	.	.	.	.	.	.	.	.	16b\Jk	.	16bb\Jk	.
=5	=5	=5	=5	=5	=5	=5	=5	=5	=5	=5	=5	=5	=5	=5	=5	=5	=5	=5	=5	=5
8D\	.	4r	.	4r	.	4r	.	00r	.	.	00r	.	00r	.	1r	.	2a/	.	2aa\	.
8r	.	.	.	.	.	.	.	.	.	.	.	.	.	.	.	.	.	.	.	.
4r	.	8A/	.	8d/	.	8c/ 8f#	.	.	.	.	.	.	.	.	.	.	.	.	.	.
.	.	8r	.	8r	.	8r	.	.	.	.	.	.	.	.	.	.	.	.	.	.
8D\	.	8A/	.	8d/	.	8c/ 8f#	.	.	.	.	.	.	.	.	.	.	4r	.	4r	.
8r	.	8r	.	8r	.	8r	.	.	.	.	.	.	.	.	.	.	.	.	.	.
4r	.	8A/	.	8d/	.	8c/ 8f#	.	.	.	.	.	.	.	.	.	.	8.b\L	.	8.bb\L	.
.	.	8r	.	8r	.	8r	.	.	.	.	.	.	.	.	.	.	.	.	.	.
.	.	.	.	.	.	.	.	.	.	.	.	.	.	.	.	.	16cc\Jk	.	16ccc\Jk	.
!LO:LB:g=original	!	!LO:LB:g=original	!	!	!	!	!	!	!	!	!	!	!	!	!	!	!LO:LB:g=original	!	!	!
=6	=6	=6	=6	=6	=6	=6	=6	=6	=6	=6	=6	=6	=6	=6	=6	=6	=6	=6	=6	=6
!	!	!	!	!	!	!	!	!	!	!	!	!	!	!	!	!LO:DY:b	!	!	!	!
8GG/	.	4r	.	4r	.	4r	.	.	.	.	.	.	.	.	4r	p	8ee\	.	8eee\	.
8r	.	.	.	.	.	.	.	.	.	.	.	.	.	.	.	.	8r	.	8r	.
4r	.	8B/	.	8d/	.	8B/ 8g	.	.	.	.	.	.	.	.	4g/	.	[4dd\	.	[4ddd\	.
.	.	8r	.	8r	.	8r	.	.	.	.	.	.	.	.	.	.	.	.	.	.
8D\	.	4r	.	4r	.	4r	.	.	.	.	.	.	.	.	4f#/	.	8.dd\L]	.	8.ddd\L]	.
8r	.	.	.	.	.	.	.	.	.	.	.	.	.	.	.	.	.	.	.	.
.	.	.	.	.	.	.	.	.	.	.	.	.	.	.	.	.	16cc\K	.	16ccc\K	.
4r	.	8A/	.	8d/	.	8c/ 8f#	.	.	.	.	.	.	.	.	4f#/	.	8.a\	.	8.aa\	.
.	.	8r	.	8r	.	8r	.	.	.	.	.	.	.	.	.	.	.	.	.	.
.	.	.	.	.	.	.	.	.	.	.	.	.	.	.	.	.	16b\Jk	.	16bb\Jk	.
=7	=7	=7	=7	=7	=7	=7	=7	=7	=7	=7	=7	=7	=7	=7	=7	=7	=7	=7	=7	=7
8GG/	.	4r	.	4r	.	8g/	.	.	.	.	.	.	.	.	8g/	.	8g/	.	8gg\	.
8r	.	.	.	.	.	8r	.	.	.	.	.	.	.	.	8r	.	8r	.	8r	.
*	*	*	*	*	*	*^	*	*	*	*	*	*	*	*	*	*	*	*	*	*
!	!	!	!	!	!	!LO:TX:a:t=P:problem=4\right&colon; global	!	!	!	!	!	!	!	!	!	!	!LO:DY:b	!	!LO:DY:b	!	!
4r	.	8B/	.	8d/	.	[4bb\	4g/	.	.	.	.	.	.	.	.	[4gg^\	f	[4bb\	f	4r	.
.	.	8r	.	8r	.	.	.	.	.	.	.	.	.	.	.	.	.	.	.	.	.
*	*	*	*	*	*	*	*	*	*	*	*	*	*	*	*	*Xtuplet	*	*Xtuplet	*	*	*
!	!	!	!	!	!	!LO:TX:a:t=P:problem=klamra łukowa	!	!	!	!	!	!	!	!	!	!LO:TX:a:t=P:global:problem=brak oznaczenia trioli	!	!LO:TX:a:t=P:global:problem=brak oznaczenia trioli	!	!	!
!	!	!	!	!	!	!LO:TX:a:t=P:problem=8\right&colon; global	!	!	!	!	!	!	!	!	!	!	!	!	!	!	!
8C\	.	4r	.	4r	.	12bb\L]	4r	.	.	.	.	.	.	.	.	12gg\L]	.	12bb\L]	.	2r	.
.	.	.	.	.	.	12aa\	.	.	.	.	.	.	.	.	.	12ff#\	.	12aa\	.	.	.
8r	.	.	.	.	.	.	.	.	.	.	.	.	.	.	.	.	.	.	.	.	.
.	.	.	.	.	.	12gg\J	.	.	.	.	.	.	.	.	.	12ee\J	.	12gg\J	.	.	.
!	!	!	!	!	!	!LO:TX:a:t=P:problem=klamra łukowa	!	!	!	!	!	!	!	!	!	!	!	!	!	!	!
4r	.	8c/	.	8e/	.	12gg\L	4f#\	.	.	.	.	.	.	.	.	12ee\L	.	12gg\L	.	.	.
.	.	.	.	.	.	12ff#\	.	.	.	.	.	.	.	.	.	12dd\	.	12ff#\	.	.	.
.	.	8r	.	8r	.	.	.	.	.	.	.	.	.	.	.	.	.	.	.	.	.
.	.	.	.	.	.	12ee\J	.	.	.	.	.	.	.	.	.	12cc\J	.	12ee\J	.	.	.
=8	=8	=8	=8	=8	=8	=8	=8	=8	=8	=8	=8	=8	=8	=8	=8	=8	=8	=8	=8	=8	=8
.	.	.	.	.	.	.	.	.	.	.	.	.	.	.	.	8qqee/	.	8qqgg/	.	.	.
8D\	.	4r	.	4r	.	8.ff#\L	4r	.	.	.	.	.	.	.	.	8.dd\L	.	8.ff#\L	.	4r	.
8r	.	.	.	.	.	.	.	.	.	.	.	.	.	.	.	.	.	.	.	.	.
!	!	!	!	!	!	!LO:TX:a:t=P:problem=16\right&colon; global	!	!	!	!	!	!	!	!	!	!	!	!	!	!	!
.	.	.	.	.	.	16ee\Jk	.	.	.	.	.	.	.	.	.	16cc\Jk	.	16ee\Jk	.	.	.
4r	.	8B/	.	8d/	.	[4dd\	4g\	.	.	.	.	.	.	.	.	[4b\	.	[4dd\	.	4bb\	.
.	.	8r	.	8r	.	.	.	.	.	.	.	.	.	.	.	.	.	.	.	.	.
*	*	*	*	*	*	*v	*v	*	*	*	*	*	*	*	*	*	*	*	*	*	*
*	*	*	*	*	*	*	*	*	*	*	*	*	*	*	*	*	*	*	*Xtuplet	*
!	!	!	!	!	!	!LO:LB:g=original	!	!	!	!	!	!	!	!	!	!	!	!	!LO:TX:a:t=P:global:problem=brak oznaczenia trioli	!
!	!	!	!	!	!	!LO:TX:a:t=P:problem=klamra łukowa	!	!	!	!	!	!	!	!	!	!	!	!	!LO:TX:a:t=P:problem= klamra łukowa, kropka zamiast numeru	!
8D\	.	4r	.	4r	.	12dd\L]	.	.	.	.	.	.	.	.	12b\L]	.	12dd\L]	.	12bb\L	.
.	.	.	.	.	.	12ee\	.	.	.	.	.	.	.	.	12cc\	.	12ee\	.	12ccc\	.
8r	.	.	.	.	.	.	.	.	.	.	.	.	.	.	.	.	.	.	.	.
.	.	.	.	.	.	12dd\J	.	.	.	.	.	.	.	.	12b\J	.	12dd\J	.	12bb\J	.
!	!	!	!	!	!	!LO:TX:a:t=P:problem=klamra łukowa	!	!	!	!	!	!	!	!	!	!	!	!	!LO:TX:a:t=P:problem= klamra łukowa, kropka zamiast numeru	!
4r	.	8A/	.	8c/ 8d	.	12cc\L	.	.	.	.	.	.	.	.	12a\L	.	4r	.	12aa\L	.
.	.	.	.	.	.	12dd\	.	.	.	.	.	.	.	.	12b\	.	.	.	12bb\	.
.	.	8r	.	8r	.	.	.	.	.	.	.	.	.	.	.	.	.	.	.	.
.	.	.	.	.	.	12cc\J	.	.	.	.	.	.	.	.	12a\J	.	.	.	12aa\J	.
!	!	!	!	!LO:LB:g=original	!	!	!	!	!	!	!	!	!	!	!	!	!	!	!LO:LB:g=original	!
=9	=9	=9	=9	=9	=9	=9	=9	=9	=9	=9	=9	=9	=9	=9	=9	=9	=9	=9	=9	=9
8G\	.	8G/	.	8B/ 8d	.	4b\	.	4r	.	.	2r	.	2r	.	8g\	.	8b\	.	8gg\	.
8r	.	8r	.	8r	.	.	.	.	.	.	.	.	.	.	8r	.	8r	.	8r	.
!	!	!	!	!	!	!	!	!	!	!	!	!	!	!	!	!LO:DY:b	!	!	!	!
4r	.	4r	.	4r	.	4r	.	4r	.	.	.	.	.	.	4r	ff	4r	.	4r	.
!	!	!	!LO:DY:b	!	!	!	!LO:DY:b	!	!	!	!	!LO:DY:b:t=p&colon;	!	!	!	!	!	!LO:DY:b	!	!
2D;\	.	2D;/	f	2d;/	.	2a;/ 2ddd	f	2r;	.	.	2c;/	p	2a;\	.	2d;/	.	2dd;\	ff	2ddd;\	.
=10	=10	=10	=10	=10	=10	=10	=10	=10	=10	=10	=10	=10	=10	=10	=10	=10	=10	=10	=10	=10
!	!LO:DY:b:t=p&colon;	!	!LO:DY:b	!	!LO:DY:b	!	!LO:DY:b:t=p&colon;	!	!	!	!LO:TX:a:t=18	!	!LO:TX:a:t=18.	!	!LO:TX:a:t=6.	!	!LO:TX:a:t=6.	!	!LO:TX:a:t=7.	!
4r	p	4r	p	4r	p	4r	p	2r	.	.	1r	.	1r	.	00r	.	00r	.	00r	.
8GG/	.	8B\	.	8d/	.	8g/	.	.	.	.	.	.	.	.	.	.	.	.	.	.
8r	.	8r	.	8r	.	8r	.	.	.	.	.	.	.	.	.	.	.	.	.	.
4r	.	4r	.	4r	.	4r	.	4r	.	.	.	.	.	.	.	.	.	.	.	.
8GG/	.	8B\	.	8d/	.	8g/	.	8.b\L	Quo-	.	.	.	.	.	.	.	.	.	.	.
8r	.	8r	.	8r	.	8r	.	.	.	.	.	.	.	.	.	.	.	.	.	.
.	.	.	.	.	.	.	.	16cc\Jk	-ni-	.	.	.	.	.	.	.	.	.	.	.
!	!	!	!	!	!	!	!	!LO:LB:g=original	!	!	!	!	!	!	!	!	!	!	!	!
=11	=11	=11	=11	=11	=11	=11	=11	=11	=11	=11	=11	=11	=11	=11	=11	=11	=11	=11	=11	=11
8GG/	.	4r	.	4r	.	4r	.	(4ee\	-am	.	1r	.	1r	.	.	.	.	.	.	.
8r	.	.	.	.	.	.	.	.	.	.	.	.	.	.	.	.	.	.	.	.
4r	.	8B\	.	8d/	.	8g/	.	4dd\)	.	.	.	.	.	.	.	.	.	.	.	.
.	.	8r	.	8r	.	8r	.	.	.	.	.	.	.	.	.	.	.	.	.	.
8D\	.	4r	.	4r	.	4r	.	8.r	.	.	.	.	.	.	.	.	.	.	.	.
8r	.	.	.	.	.	.	.	.	.	.	.	.	.	.	.	.	.	.	.	.
.	.	.	.	.	.	.	.	16cc\	Rex	.	.	.	.	.	.	.	.	.	.	.
4r	.	8B\	.	8c/ 8d	.	8f#/	.	(8.a\	no-	.	.	.	.	.	.	.	.	.	.	.
.	.	8r	.	8r	.	8r	.	.	.	.	.	.	.	.	.	.	.	.	.	.
.	.	.	.	.	.	.	.	16b\)	.	.	.	.	.	.	.	.	.	.	.	.
!LO:LB:g=original	!	!LO:LB:g=original	!	!	!	!	!	!	!	!	!	!	!	!	!	!	!	!	!	!
=12	=12	=12	=12	=12	=12	=12	=12	=12	=12	=12	=12	=12	=12	=12	=12	=12	=12	=12	=12	=12
!	!	!	!	!	!	!LO:TX:a:t=P:problem= rep cały takt	!	!	!	!	!	!	!	!	!	!	!	!	!	!
8GG/	.	4r	.	4r	.	4r	.	2g\	-ster	.	1r	.	1r	.	.	.	.	.	.	.
8r	.	.	.	.	.	.	.	.	.	.	.	.	.	.	.	.	.	.	.	.
4r	.	8B\	.	8d/	.	8g/	.	.	.	.	.	.	.	.	.	.	.	.	.	.
.	.	8r	.	8r	.	8r	.	.	.	.	.	.	.	.	.	.	.	.	.	.
8D\	.	4r	.	4r	.	4r	.	4r	.	.	.	.	.	.	.	.	.	.	.	.
8r	.	.	.	.	.	.	.	.	.	.	.	.	.	.	.	.	.	.	.	.
4r	.	8c\	.	8d/	.	8f#/	.	8.a\L	spe-	.	.	.	.	.	.	.	.	.	.	.
.	.	8r	.	8r	.	8r	.	.	.	.	.	.	.	.	.	.	.	.	.	.
.	.	.	.	.	.	.	.	16b\Jk	-rat	.	.	.	.	.	.	.	.	.	.	.
=13	=13	=13	=13	=13	=13	=13	=13	=13	=13	=13	=13	=13	=13	=13	=13	=13	=13	=13	=13	=13
8GG/	.	4r	.	4r	.	4r	.	4g\	in	.	1r	.	1r	.	.	.	.	.	.	.
8r	.	.	.	.	.	.	.	.	.	.	.	.	.	.	.	.	.	.	.	.
4r	.	8B\	.	8d/	.	8g/	.	4g\	Te	.	.	.	.	.	.	.	.	.	.	.
.	.	8r	.	8r	.	8r	.	.	.	.	.	.	.	.	.	.	.	.	.	.
8C\	.	4r	.	4r	.	4r	.	(8.gg\L	Do-	.	.	.	.	.	.	.	.	.	.	.
8r	.	.	.	.	.	.	.	.	.	.	.	.	.	.	.	.	.	.	.	.
.	.	.	.	.	.	.	.	16ee\Jk)	.	.	.	.	.	.	.	.	.	.	.	.
4r	.	8c\	.	8e/	.	8f#/ 8a	.	(8.cc\L	-mi-	.	.	.	.	.	.	.	.	.	.	.
.	.	8r	.	8r	.	8r	.	.	.	.	.	.	.	.	.	.	.	.	.	.
.	.	.	.	.	.	.	.	16b\Jk)	.	.	.	.	.	.	.	.	.	.	.	.
!	!	!	!	!	!	!LO:LB:g=original	!	!	!	!	!	!	!	!	!	!	!	!	!	!
=14	=14	=14	=14	=14	=14	=14	=14	=14	=14	=14	=14	=14	=14	=14	=14	=14	=14	=14	=14	=14
8D\	.	4r	.	4r	.	4r	.	2a\	-ne	.	1r	.	1r	.	0r	.	0r	.	0r	.
8r	.	.	.	.	.	.	.	.	.	.	.	.	.	.	.	.	.	.	.	.
4r	.	8A/	.	8c/ 8d	.	8c/ 8f#	.	.	.	.	.	.	.	.	.	.	.	.	.	.
.	.	8r	.	8r	.	8r	.	.	.	.	.	.	.	.	.	.	.	.	.	.
8D\	.	8A/	.	8c/ 8d	.	8c/ 8f#	.	4r	.	.	.	.	.	.	.	.	.	.	.	.
8r	.	8r	.	8r	.	8r	.	.	.	.	.	.	.	.	.	.	.	.	.	.
4r	.	8A/	.	8c/ 8d	.	8c/ 8f#	.	8.b\	Quo-	.	.	.	.	.	.	.	.	.	.	.
.	.	8r	.	8r	.	8r	.	.	.	.	.	.	.	.	.	.	.	.	.	.
.	.	.	.	.	.	.	.	16cc\	-ni-	.	.	.	.	.	.	.	.	.	.	.
!	!	!	!	!LO:LB:g=original	!	!	!	!LO:LB:g=original	!	!	!	!	!	!	!	!	!	!	!	!
=15	=15	=15	=15	=15	=15	=15	=15	=15	=15	=15	=15	=15	=15	=15	=15	=15	=15	=15	=15	=15
8G\	.	4r	.	4r	.	4r	.	(4ee\	-am	.	1r	.	1r	.	.	.	.	.	.	.
8r	.	.	.	.	.	.	.	.	.	.	.	.	.	.	.	.	.	.	.	.
4r	.	8B\	.	8d/	.	8g/	.	4dd\)	.	.	.	.	.	.	.	.	.	.	.	.
.	.	8r	.	8r	.	8r	.	.	.	.	.	.	.	.	.	.	.	.	.	.
8D\	.	4r	.	4r	.	4r	.	8.r	.	.	.	.	.	.	.	.	.	.	.	.
8r	.	.	.	.	.	.	.	.	.	.	.	.	.	.	.	.	.	.	.	.
.	.	.	.	.	.	.	.	16cc\	rexno-	.	.	.	.	.	.	.	.	.	.	.
4r	.	8c\	.	8c/ 8d	.	8f#/	.	(8.a\	.	.	.	.	.	.	.	.	.	.	.	.
.	.	8r	.	8r	.	8r	.	.	.	.	.	.	.	.	.	.	.	.	.	.
.	.	.	.	.	.	.	.	16b\)	.	.	.	.	.	.	.	.	.	.	.	.
!	!	!	!	!	!	!	!	!	!	!	!	!	!	!	!LO:LB:g=original	!	!LO:LB:g=original	!	!	!
=16	=16	=16	=16	=16	=16	=16	=16	=16	=16	=16	=16	=16	=16	=16	=16	=16	=16	=16	=16	=16
*	*	*	*	*	*	*	*	*Xtuplet	*	*	*	*	*	*	*	*	*	*	*	*
!	!	!	!	!	!	!	!	!	!	!	!	!	!	!	!	!LO:DY:b	!	!LO:DY:b	!	!
8GG/	.	4r	.	4r	.	4r	.	8g\	-ster	.	1r	.	1r	.	4r	p	4r	p	1r	.
8r	.	.	.	.	.	.	.	8r	.	.	.	.	.	.	.	.	.	.	.	.
4r	.	8B\	.	8d/	.	8g/	.	4bb\	spe-	.	.	.	.	.	[4gg\	.	[4bb\	.	.	.
.	.	8r	.	8r	.	8r	.	.	.	.	.	.	.	.	.	.	.	.	.	.
!	!	!	!	!	!	!	!	!LO:TX:a:t=P:global:problem=brak oznaczenia trioli	!	!	!	!	!	!	!	!	!	!	!	!
8C\	.	4r	.	4r	.	4r	.	12bb\L	.	.	.	.	.	.	12gg\L]	.	12bb\L]	.	.	.
.	.	.	.	.	.	.	.	12aa\	.	.	.	.	.	.	12ff#\	.	12aa\	.	.	.
8r	.	.	.	.	.	.	.	.	.	.	.	.	.	.	.	.	.	.	.	.
.	.	.	.	.	.	.	.	12gg\J	.	.	.	.	.	.	12ee\J	.	12gg\J	.	.	.
4r	.	8c\	.	8e/	.	8a/	.	12gg\L	-rat	.	.	.	.	.	12ee\L	.	12gg\L	.	.	.
.	.	.	.	.	.	.	.	12ff#\	.	.	.	.	.	.	12dd\	.	12ff#\	.	.	.
.	.	8r	.	8r	.	8r	.	.	.	.	.	.	.	.	.	.	.	.	.	.
.	.	.	.	.	.	.	.	12ee\J	.	.	.	.	.	.	12cc\J	.	12ee\J	.	.	.
!LO:LB:g=original	!	!	!	!	!	!	!	!	!	!	!	!	!	!	!	!	!	!	!	!
=17	=17	=17	=17	=17	=17	=17	=17	=17	=17	=17	=17	=17	=17	=17	=17	=17	=17	=17	=17	=17
.	.	.	.	.	.	.	.	8qqgg/	.	.	.	.	.	.	8qqee/	.	8qqgg/	.	.	.
8D\	.	4r	.	4r	.	4r	.	8.ff#\L	in	.	1r	.	1r	.	8.dd\L	.	8.ff#\L	.	4r	.
8r	.	.	.	.	.	.	.	.	.	.	.	.	.	.	.	.	.	.	.	.
.	.	.	.	.	.	.	.	16ee\Jk	.	.	.	.	.	.	16cc\Jk	.	16ee\Jk	.	.	.
*	*	*	*	*	*	*	*	*tuplet	*	*	*	*	*	*	*	*	*	*	*	*
4r	.	8B\	.	8d/	.	8g/	.	[4dd\	te	.	.	.	.	.	[4b\	.	4dd\	.	4bb\	.
.	.	8r	.	8r	.	8r	.	.	.	.	.	.	.	.	.	.	.	.	.	.
!	!	!	!	!	!	!	!	!LO:TX:a:t=P:problem=klamra łukowa	!	!	!	!	!	!	!	!	!	!	!	!
8D\	.	4r	.	4r	.	4r	.	12dd\]	.	.	.	.	.	.	12b\L]	.	12dd\L	.	12bb\L	.
.	.	.	.	.	.	.	.	12ee\L	.	.	.	.	.	.	12cc\	.	12ee\	.	12ccc\	.
8r	.	.	.	.	.	.	.	.	.	.	.	.	.	.	.	.	.	.	.	.
.	.	.	.	.	.	.	.	12dd\J	.	.	.	.	.	.	12b\J	.	12dd\J	.	12bb\J	.
!	!	!	!	!	!	!	!	!LO:TX:a:t=P:problem=klamra łukowa	!	!	!	!	!	!	!	!	!	!	!	!
4r	.	8A/	.	8c/ 8d	.	8f#/	.	12cc\L	Do-	.	.	.	.	.	12b\L	.	12dd\L	.	12aa\L	.
.	.	.	.	.	.	.	.	12dd\J	.	.	.	.	.	.	12cc\	.	12ee\	.	12bb\	.
.	.	8r	.	8r	.	8r	.	.	.	.	.	.	.	.	.	.	.	.	.	.
.	.	.	.	.	.	.	.	12cc\	-mi-	.	.	.	.	.	12b\J	.	12dd\J	.	12aa\J	.
*	*	*	*	*	*	*	*	*Xtuplet	*	*	*	*	*	*	*	*	*	*	*	*
!	!	!LO:LB:g=original	!	!	!	!	!	!	!	!	!	!	!	!	!	!	!	!	!	!
=18	=18	=18	=18	=18	=18	=18	=18	=18	=18	=18	=18	=18	=18	=18	=18	=18	=18	=18	=18	=18
8GG/	.	4r	.	4r	.	2B/ 2g	.	2b\	-ne	.	1r	.	1r	.	4g/	.	4b\	.	4gg\	.
8r	.	.	.	.	.	.	.	.	.	.	.	.	.	.	.	.	.	.	.	.
4r	.	8B\	.	8d/	.	.	.	.	.	.	.	.	.	.	4r	.	4r	.	4r	.
.	.	8r	.	8r	.	.	.	.	.	.	.	.	.	.	.	.	.	.	.	.
8GG/	.	4r	.	4r	.	4r	.	4r	.	.	.	.	.	.	2r	.	2r	.	2r	.
8r	.	.	.	.	.	.	.	.	.	.	.	.	.	.	.	.	.	.	.	.
4r	.	8B\	.	8d/	.	8.f#/L	.	8.f#\	in	.	.	.	.	.	.	.	.	.	.	.
.	.	8r	.	8r	.	.	.	.	.	.	.	.	.	.	.	.	.	.	.	.
.	.	.	.	.	.	16g/Jk	.	16g\	ve-	.	.	.	.	.	.	.	.	.	.	.
!	!	!	!	!	!	!	!	!LO:LB:g=original	!	!	!	!	!	!	!	!	!	!	!	!
=19	=19	=19	=19	=19	=19	=19	=19	=19	=19	=19	=19	=19	=19	=19	=19	=19	=19	=19	=19	=19
!	!	!	!	!	!	!	!	!	!	!	!	!	!	!	!LO:TX:a:t=5.	!	!LO:TX:a:t=5.	!	!LO:TX:a:t=7.	!
8D\	.	8d\	.	4r	.	4r	.	4a\	-nia-	.	1r	.	1r	.	00r	.	00r	.	00r	.
8r	.	8r	.	.	.	.	.	.	.	.	.	.	.	.	.	.	.	.	.	.
4r	.	4r	.	8f#/	.	4f#/ 4a	.	4a\	-tur	.	.	.	.	.	.	.	.	.	.	.
.	.	.	.	8r	.	.	.	.	.	.	.	.	.	.	.	.	.	.	.	.
8C#X\	.	8c#X\	.	4r	.	4r	.	4b-X\	ma-	<	.	.	.	.	.	.	.	.	.	.
8r	.	8r	.	.	.	.	.	.	.	.	.	.	.	.	.	.	.	.	.	.
4r	.	4r	.	8g/	.	4g/ 4b-X	.	4b-\	-mus	[	.	.	.	.	.	.	.	.	.	.
.	.	.	.	8r	.	.	.	.	.	.	.	.	.	.	.	.	.	.	.	.
!	!	!	!	!LO:LB:g=original	!	!LO:LB:g=original	!	!	!	!	!	!	!	!	!	!	!	!	!	!
=20	=20	=20	=20	=20	=20	=20	=20	=20	=20	=20	=20	=20	=20	=20	=20	=20	=20	=20	=20	=20
8D\	.	8d\	.	4r	.	4r	.	2a\	tu-	.	1r	.	1r	.	.	.	.	.	.	.
8r	.	8r	.	.	.	.	.	.	.	.	.	.	.	.	.	.	.	.	.	.
4r	.	4r	.	8f#/	.	8f#/ 8a	.	.	.	.	.	.	.	.	.	.	.	.	.	.
.	.	.	.	8r	.	8r	.	.	.	.	.	.	.	.	.	.	.	.	.	.
8BB\	.	8B\	.	4r	.	4r	.	8a\	-a	.	.	.	.	.	.	.	.	.	.	.
8r	.	8r	.	.	.	.	.	8r	.	.	.	.	.	.	.	.	.	.	.	.
4r	.	4r	.	8c/ 8e	.	8.a/L	.	8.a\	om-	.	.	.	.	.	.	.	.	.	.	.
.	.	.	.	8r	.	.	.	.	.	.	.	.	.	.	.	.	.	.	.	.
.	.	.	.	.	.	16b/Jk	.	16b\	-ni-	.	.	.	.	.	.	.	.	.	.	.
=21	=21	=21	=21	=21	=21	=21	=21	=21	=21	=21	=21	=21	=21	=21	=21	=21	=21	=21	=21	=21
8AA/	.	4r	.	4r	.	8cc\	.	4cc\	-bus	.	1r	.	1r	.	.	.	.	.	.	.
8r	.	.	.	.	.	8r	.	.	.	.	.	.	.	.	.	.	.	.	.	.
4r	.	8c\	.	8e/	.	4e/	.	8r	.	.	.	.	.	.	.	.	.	.	.	.
.	.	8r	.	8r	.	.	.	8ee\	ini-	.	.	.	.	.	.	.	.	.	.	.
8EE/	.	4r	.	4r	.	4r	.	(8ee\	-mi-	.	.	.	.	.	.	.	.	.	.	.
8r	.	.	.	.	.	.	.	8b\)	-ci	.	.	.	.	.	.	.	.	.	.	.
4r	.	8d\	.	8e/	.	4B/ 4e	.	8r	.	.	.	.	.	.	.	.	.	.	.	.
.	.	8r	.	8r	.	.	.	8ee\	e-	.	.	.	.	.	.	.	.	.	.	.
!LO:LB:g=original	!	!	!	!	!	!	!	!	!	!	!	!	!	!	!	!	!	!	!	!
=22	=22	=22	=22	=22	=22	=22	=22	=22	=22	=22	=22	=22	=22	=22	=22	=22	=22	=22	=22	=22
8AA/	.	4r	.	4r	.	4r	.	2a\	-jus	.	1r	.	1r	.	.	.	.	.	.	.
8r	.	.	.	.	.	.	.	.	.	.	.	.	.	.	.	.	.	.	.	.
4r	.	8c\	.	8f#/	.	4e/ 4a	.	.	.	.	.	.	.	.	.	.	.	.	.	.
.	.	8r	.	8r	.	.	.	.	.	.	.	.	.	.	.	.	.	.	.	.
8D\	.	4r	.	4r	.	4r	.	4r	.	.	.	.	.	.	.	.	.	.	.	.
8r	.	.	.	.	.	.	.	.	.	.	.	.	.	.	.	.	.	.	.	.
4r	.	8A/	.	8c/ 8d	.	8B/ 8g	.	8.b\	et	.	.	.	.	.	.	.	.	.	.	.
.	.	8r	.	8r	.	8r	.	.	.	.	.	.	.	.	.	.	.	.	.	.
.	.	.	.	.	.	.	.	16cc\	dex-	.	.	.	.	.	.	.	.	.	.	.
!	!	!LO:LB:g=original	!	!	!	!	!	!LO:LB:g=original	!	!	!	!	!	!	!	!	!	!	!	!
=23	=23	=23	=23	=23	=23	=23	=23	=23	=23	=23	=23	=23	=23	=23	=23	=23	=23	=23	=23	=23
8GG/	.	4r	.	4r	.	4r	.	4ee\	-te-	.	1r	.	1r	.	1r	.	1r	.	0r	.
8r	.	.	.	.	.	.	.	.	.	.	.	.	.	.	.	.	.	.	.	.
.	.	.	.	.	.	.	.	8qqee/	.	.	.	.	.	.	.	.	.	.	.	.
4r	.	8B/	.	8d/	.	8g/	.	4dd\	-ra	.	.	.	.	.	.	.	.	.	.	.
.	.	8r	.	8r	.	8r	.	.	.	.	.	.	.	.	.	.	.	.	.	.
8D\	.	4r	.	4r	.	4r	.	8.r	.	.	.	.	.	.	.	.	.	.	.	.
8r	.	.	.	.	.	.	.	.	.	.	.	.	.	.	.	.	.	.	.	.
.	.	.	.	.	.	.	.	16cc\	tu-	.	.	.	.	.	.	.	.	.	.	.
4r	.	8A/	.	8c/ 8d	.	8g/	.	8.a\	.	.	.	.	.	.	.	.	.	.	.	.
!	!	!	!	!	!	!LO:TX:a:t=P:problem= niepełna miara taktu	!	!	!	!	!	!	!	!	!	!	!	!	!	!
.	.	8r	.	8r	.	8ryy	.	.	.	.	.	.	.	.	.	.	.	.	.	.
.	.	.	.	.	.	.	.	16b\	.	.	.	.	.	.	.	.	.	.	.	.
=24	=24	=24	=24	=24	=24	=24	=24	=24	=24	=24	=24	=24	=24	=24	=24	=24	=24	=24	=24	=24
!	!	!	!	!	!	!	!	!	!	!	!	!	!	!	!	!	!	!LO:DY:b	!	!
8GG/	.	4r	.	4r	.	4r	.	8g\	-a	.	1r	.	1r	.	4r	.	4r	f	.	.
8r	.	.	.	.	.	.	.	8r	.	.	.	.	.	.	.	.	.	.	.	.
4r	.	8B/	.	8d/	.	4B/ 4g	.	[4bb\	pro-	.	.	.	.	.	[4gg\	.	4bb\	.	.	.
.	.	8r	.	8r	.	.	.	.	.	.	.	.	.	.	.	.	.	.	.	.
8C\	.	4r	.	4r	.	4r	.	12bb\L]	.	.	.	.	.	.	12gg\L]	.	12bb\L	.	.	.
.	.	.	.	.	.	.	.	12aa\	-te-	.	.	.	.	.	12ff#\	.	12aa\	.	.	.
8r	.	.	.	.	.	.	.	.	.	.	.	.	.	.	.	.	.	.	.	.
.	.	.	.	.	.	.	.	12gg\J	.	.	.	.	.	.	12ee\J	.	12gg\J	.	.	.
4r	.	8c\	.	8e/	.	8c/ 8a	.	12gg\L	-gat	.	.	.	.	.	12ee\L	.	12gg\L	.	.	.
.	.	.	.	.	.	.	.	12ff#\	.	.	.	.	.	.	12dd\	.	12ff#\	.	.	.
.	.	8r	.	8r	.	8r	.	.	.	.	.	.	.	.	.	.	.	.	.	.
.	.	.	.	.	.	.	.	12ee\J	.	.	.	.	.	.	12cc\J	.	12ee\J	.	.	.
!	!	!	!	!LO:LB:g=original	!	!	!	!	!	!	!	!	!	!	!	!	!	!	!	!
=25	=25	=25	=25	=25	=25	=25	=25	=25	=25	=25	=25	=25	=25	=25	=25	=25	=25	=25	=25	=25
.	.	.	.	.	.	.	.	8qqgg/	.	.	.	.	.	.	8qqee/	.	8qqgg/	.	.	.
8D\	.	4r	.	4r	.	4r	.	8.ff#\L	e-	.	1r	.	1r	.	8.dd\L	.	8.ff#\L	.	1r	.
8r	.	.	.	.	.	.	.	.	.	.	.	.	.	.	.	.	.	.	.	.
.	.	.	.	.	.	.	.	16ee\Jk	.	.	.	.	.	.	16cc\Jk	.	16ee\Jk	.	.	.
4r	.	8B/	.	8d/	.	4B/ 4g	.	4dd\	.	.	.	.	.	.	4b\	.	4dd\	.	.	.
.	.	8r	.	8r	.	.	.	.	.	.	.	.	.	.	.	.	.	.	.	.
8D\	.	4r	.	4r	.	4r	.	12dd\L	.	.	.	.	.	.	12b\L	.	12dd\L	.	.	.
.	.	.	.	.	.	.	.	12ee\	.	.	.	.	.	.	12cc\	.	12ee\	.	.	.
8r	.	.	.	.	.	.	.	.	.	.	.	.	.	.	.	.	.	.	.	.
.	.	.	.	.	.	.	.	12dd\J	.	.	.	.	.	.	12b\J	.	12dd\J	.	.	.
4r	.	8A/	.	8c/ 8d	.	8f#/	.	12cc\L	.	.	.	.	.	.	12a\L	.	12cc\L	.	.	.
.	.	.	.	.	.	.	.	12dd\	.	.	.	.	.	.	12b\	.	12dd\	.	.	.
.	.	8r	.	8r	.	8r	.	.	.	.	.	.	.	.	.	.	.	.	.	.
.	.	.	.	.	.	.	.	12cc\J	.	.	.	.	.	.	12a\J	.	12cc\J	.	.	.
!	!	!	!	!	!	!LO:TX:b:t=V.ʃabitti	!	!	!	!	!	!	!	!	!	!	!	!	!	!
!	!	!	!	!	!	!LO:PB:g=original	!	!LO:LB:g=original	!	!	!	!	!	!	!LO:LB:g=original	!	!LO:LB:g=original	!	!	!
=26	=26	=26	=26	=26	=26	=26	=26	=26	=26	=26	=26	=26	=26	=26	=26	=26	=26	=26	=26	=26
8G\	.	8B\	.	8d/	.	8B/ 8g	.	8b\	-um	.	1r	.	1r	.	8g/	.	8b\	.	4r	.
8r	.	8r	.	8r	.	8r	.	8r	.	.	.	.	.	.	8r	.	8r	.	.	.
8GG/	.	8B\	.	8d/	.	8B/ 8g	.	[4bb\	pro-	.	.	.	.	.	4gg\	.	4bb\	.	4bb\	.
8r	.	8r	.	8r	.	8r	.	.	.	.	.	.	.	.	.	.	.	.	.	.
!	!	!	!	!	!	!LO:TX:b:t=e	!	!	!	!	!	!	!	!	!	!	!	!	!	!
8C/	.	8c\	.	8c/	.	8e/ 8a	.	12bb\L]	.	.	.	.	.	.	12gg\L	.	12bb\L	.	12bb\L	.
.	.	.	.	.	.	.	.	12aa\	-te-	.	.	.	.	.	12ff#\	.	12aa\	.	12aa\	.
8r	.	8r	.	8r	.	8r	.	.	.	.	.	.	.	.	.	.	.	.	.	.
.	.	.	.	.	.	.	.	12gg\J	.	.	.	.	.	.	12ee\J	.	12gg\J	.	12gg\J	.
!	!	!	!	!	!	!LO:TX:b:t=e	!	!	!	!	!	!	!	!	!	!	!	!	!	!
8C/	.	8c\	.	8c/	.	8e/ 8a	.	12gg\L	-gat	.	.	.	.	.	12ee\L	.	12gg\L	.	12ggg\L	.
.	.	.	.	.	.	.	.	12ff#\	.	.	.	.	.	.	12dd\	.	12ff#\	.	12fff#\	.
8r	.	8r	.	8r	.	8r	.	.	.	.	.	.	.	.	.	.	.	.	.	.
.	.	.	.	.	.	.	.	12ee\J	.	.	.	.	.	.	12cc\J	.	12ee\J	.	12eee\J	.
!LO:LB:g=original	!	!	!	!	!	!	!	!	!	!	!	!	!	!	!	!	!	!	!	!
=27	=27	=27	=27	=27	=27	=27	=27	=27	=27	=27	=27	=27	=27	=27	=27	=27	=27	=27	=27	=27
*	*	*	*	*	*	*	*	*	*	*	*	*	*	*	*tuplet	*	*	*	*	*
!	!	!	!	!	!	!	!	!	!	!	!	!	!	!	!LO:TX:a:t=P:problem=oznaczenie trioli klamra łukowa z trójką	!	!	!	!	!
8D\	.	8d\	.	8G/	.	8B/ 8g	.	12dd\L	e-	.	1r	.	1r	.	6b\	.	12dd\L	.	12ddd\L	.
.	.	.	.	.	.	.	.	12ff#\	.	.	.	.	.	.	.	.	12ff#\	.	12fff#\	.
8r	.	8r	.	8r	.	8r	.	.	.	.	.	.	.	.	.	.	.	.	.	.
.	.	.	.	.	.	.	.	12aa\J	.	.	.	.	.	.	12b\	.	12gg\J	.	12ggg\J	.
*	*	*	*	*	*	*	*	*	*	*	*	*	*	*	*Xtuplet	*	*	*	*	*
8D\	.	8D/	.	8G/	.	8B/ 8g	.	4dd\	.	.	.	.	.	.	4b\	.	4dd\	.	4ddd\	.
8r	.	8r	.	8r	.	8r	.	.	.	.	.	.	.	.	.	.	.	.	.	.
8D\	.	8F#/	.	8A/	.	8c/ 8f#	.	12dd\L	.	.	.	.	.	.	12b\L	.	12dd\L	.	12ddd\L	.
.	.	.	.	.	.	.	.	12ee\	.	.	.	.	.	.	12cc\	.	12ee\	.	12eee\	.
8r	.	8r	.	8r	.	8r	.	.	.	.	.	.	.	.	.	.	.	.	.	.
.	.	.	.	.	.	.	.	12cc\J	.	.	.	.	.	.	12b\J	.	12dd\J	.	12ddd\J	.
8D\	.	8F#/	.	8A/	.	8c/ 8f#	.	12cc\L	.	.	.	.	.	.	12a/L	.	12cc\L	.	12ccc\L	.
.	.	.	.	.	.	.	.	12a\	.	.	.	.	.	.	12f#/	.	12a\	.	12aa\	.
8r	.	8r	.	8r	.	8r	.	.	.	.	.	.	.	.	.	.	.	.	.	.
!	!	!	!	!	!	!	!	!	!	!	!	!	!	!LO:DY:b:t=f&colon;	!	!	!	!	!	!
.	.	.	.	.	.	.	.	12dd\J	.	.	.	.	.	f	12d/J	.	12b\J	.	12bb\J	.
!	!	!LO:LB:g=original	!	!	!	!	!	!	!	!	!	!	!	!	!	!	!	!	!LO:LB:g=original	!
=28	=28	=28	=28	=28	=28	=28	=28	=28	=28	=28	=28	=28	=28	=28	=28	=28	=28	=28	=28	=28
*	*	*	*	*tremolo	*	*	*	*	*	*	*	*	*	*	*	*	*	*	*	*
!	!LO:DY:b	!	!LO:DY:b	!LO:TX:a:Bi:t=1	!LO:DY:b:t=ff&colon;	!	!	!	!	!	!	!LO:DY:b	!	!	!	!	!	!	!LO:TX:a:B:t=Allegro	!
4GG/	f	4G/	f	16G 16gLL	ff	8g/	.	4g\	-um	.	2G/	f	2g\	.	4d/	.	4g/	.	2gg\	.
.	.	.	.	16G 16g	.	.	.	.	.	.	.	.	.	.	.	.	.	.	.	.
.	.	.	.	16G 16g	.	8r	.	.	.	.	.	.	.	.	.	.	.	.	.	.
.	.	.	.	16G 16g	.	.	.	.	.	.	.	.	.	.	.	.	.	.	.	.
!	!	!	!	!	!	!	!LO:DY:b	!	!	!	!	!	!	!	!	!LO:DY:b	!	!LO:DY:b	!	!
4r	.	4r	.	16G 16g	.	4r	f	4r	.	.	.	.	.	.	4r	f	4r	f	.	.
.	.	.	.	16G 16g	.	.	.	.	.	.	.	.	.	.	.	.	.	.	.	.
.	.	.	.	16G 16g	.	.	.	.	.	.	.	.	.	.	.	.	.	.	.	.
.	.	.	.	16G 16g	.	.	.	.	.	.	.	.	.	.	.	.	.	.	.	.
4.GG/	.	4.G/	.	16G 16g	.	4.b\	.	2r	.	.	8G/L	.	8g\L	.	4g/	.	4.b\	.	4ggg\	.
.	.	.	.	16G 16g	.	.	.	.	.	.	.	.	.	.	.	.	.	.	.	.
.	.	.	.	16G 16g	.	.	.	.	.	.	8G/	.	8g\	.	.	.	.	.	.	.
.	.	.	.	16G 16g	.	.	.	.	.	.	.	.	.	.	.	.	.	.	.	.
.	.	.	.	16G 16g	.	.	.	.	.	.	8G/	.	8g\	.	4r	.	.	.	4ggg\	.
.	.	.	.	16G 16g	.	.	.	.	.	.	.	.	.	.	.	.	.	.	.	.
8AA/	.	8A/	.	16G 16g	.	8cc\	.	.	.	.	8G/J	.	8g\J	.	.	.	8cc\	.	.	.
.	.	.	.	16G 16gJJ	.	.	.	.	.	.	.	.	.	.	.	.	.	.	.	.
=29	=29	=29	=29	=29	=29	=29	=29	=29	=29	=29	=29	=29	=29	=29	=29	=29	=29	=29	=29	=29
*	*	*	*	*rep	*	*	*	*	*	*	*	*	*	*	*	*	*	*	*	*
!	!	!	!	!	!	!	!	!LO:TX:b:t=9.	!	!	!	!	!	!	!	!	!	!	!	!
8BB/L	.	8B/L	.	16G 16gLL	.	8dd\L	.	00r	.	.	2G/	.	2g\	.	4g/	.	8dd\L	.	2ggg\	.
.	.	.	.	16G 16g	.	.	.	.	.	.	.	.	.	.	.	.	.	.	.	.
8AA/	.	8A/	.	16G 16g	.	8cc\	.	.	.	.	.	.	.	.	.	.	8cc\	.	.	.
.	.	.	.	16G 16g	.	.	.	.	.	.	.	.	.	.	.	.	.	.	.	.
8GG/	.	8G/	.	16G 16g	.	8b\J	.	.	.	.	.	.	.	.	8g/L	.	8b\	.	.	.
.	.	.	.	16G 16g	.	.	.	.	.	.	.	.	.	.	.	.	.	.	.	.
8AA/J	.	8A/J	.	16G 16g	.	8r	.	.	.	.	.	.	.	.	8g/J	.	8b\J	.	.	.
.	.	.	.	16G 16g	.	.	.	.	.	.	.	.	.	.	.	.	.	.	.	.
*	*	*	*	*	*	*	*	*	*	*	*tremolo	*	*	*	*	*	*	*	*	*
4.AA/	.	4.A/	.	16G 16g	.	4.cc\	.	.	.	.	8G/L	.	8g\L	.	2g/	.	4.cc\	.	4ggg\	.
.	.	.	.	16G 16g	.	.	.	.	.	.	.	.	.	.	.	.	.	.	.	.
.	.	.	.	16G 16g	.	.	.	.	.	.	8G/	.	8g\	.	.	.	.	.	.	.
.	.	.	.	16G 16g	.	.	.	.	.	.	.	.	.	.	.	.	.	.	.	.
.	.	.	.	16G 16g	.	.	.	.	.	.	8G/	.	8g\	.	.	.	.	.	4ggg\	.
.	.	.	.	16G 16g	.	.	.	.	.	.	.	.	.	.	.	.	.	.	.	.
8BB/	.	8B/	.	16G 16g	.	8dd\	.	.	.	.	8G/J	.	8g\J	.	.	.	8dd\	.	.	.
.	.	.	.	16G 16gJJ	.	.	.	.	.	.	.	.	.	.	.	.	.	.	.	.
*	*	*	*	*Xrep	*	*	*	*	*	*	*	*	*	*	*	*	*	*	*	*
!	!	!	!	!	!	!	!	!	!	!	!	!	!LO:LB:g=original	!	!	!	!	!	!	!
=30	=30	=30	=30	=30	=30	=30	=30	=30	=30	=30	=30	=30	=30	=30	=30	=30	=30	=30	=30	=30
*	*	*	*	*rep	*	*	*	*	*	*	*	*	*	*	*	*	*	*	*rep	*
!	!	!	!	!LO:TX:a:t=P: rep:problem	!	!	!	!	!	!	!	!	!	!	!	!	!	!	!	!
8C/L	.	8c/L	.	16G 16gLL	.	8ee\L	.	.	.	.	2G/	.	2g\	.	2g/	.	8ee\L	.	2ggg\	.
.	.	.	.	16G 16g	.	.	.	.	.	.	.	.	.	.	.	.	.	.	.	.
8BB/	.	8B/	.	16G 16g	.	8dd\J	.	.	.	.	.	.	.	.	.	.	8dd\J	.	.	.
.	.	.	.	16G 16g	.	.	.	.	.	.	.	.	.	.	.	.	.	.	.	.
8AA/	.	8A/	.	16G 16g	.	4cc\	.	.	.	.	.	.	.	.	.	.	4cc\	.	.	.
.	.	.	.	16G 16g	.	.	.	.	.	.	.	.	.	.	.	.	.	.	.	.
8GG/J	.	8G/J	.	16G 16g	.	.	.	.	.	.	.	.	.	.	.	.	.	.	.	.
.	.	.	.	16G 16g	.	.	.	.	.	.	.	.	.	.	.	.	.	.	.	.
4.BB/	.	4.B/	.	16G 16g	.	4.dd\	.	.	.	.	8G/L	.	8g\L	.	4g/	.	4.dd\	.	4ggg\	.
.	.	.	.	16G 16g	.	.	.	.	.	.	.	.	.	.	.	.	.	.	.	.
.	.	.	.	16G 16g	.	.	.	.	.	.	8G/	.	8g\	.	.	.	.	.	.	.
.	.	.	.	16G 16g	.	.	.	.	.	.	.	.	.	.	.	.	.	.	.	.
.	.	.	.	16G 16g	.	.	.	.	.	.	8G/	.	8g\	.	4g/	.	.	.	4ggg\	.
.	.	.	.	16G 16g	.	.	.	.	.	.	.	.	.	.	.	.	.	.	.	.
8C/	.	8c/	.	16G 16g	.	8ee\	.	.	.	.	8G/J	.	8g\J	.	.	.	8ee\	.	.	.
.	.	.	.	16G 16gJJ	.	.	.	.	.	.	.	.	.	.	.	.	.	.	.	.
*	*	*	*	*Xrep	*	*	*	*	*	*	*	*	*	*	*	*	*	*	*Xrep	*
!	!	!	!	!	!	!LO:LB:g=original	!	!	!	!	!	!	!	!	!	!	!LO:LB:g=original	!	!	!
=31	=31	=31	=31	=31	=31	=31	=31	=31	=31	=31	=31	=31	=31	=31	=31	=31	=31	=31	=31	=31
*	*	*	*	*rep	*	*	*	*	*	*	*rep	*	*	*	*	*	*	*	*rep	*
!	!	!	!	!LO:TX:a:t=P: rep:problem	!	!	!	!	!	!	!	!	!	!	!	!	!	!	!	!
8C/L	.	8d\L	.	16G 16gLL	.	8ffn\L	.	.	.	.	2G/	.	2g\	.	2g/	.	8ffn\L	.	2ggg\	.
.	.	.	.	16G 16g	.	.	.	.	.	.	.	.	.	.	.	.	.	.	.	.
8BB/	.	8c\	.	16G 16g	.	8ee\	.	.	.	.	.	.	.	.	.	.	8ee\	.	.	.
.	.	.	.	16G 16g	.	.	.	.	.	.	.	.	.	.	.	.	.	.	.	.
8AA/	.	8B\	.	16G 16g	.	8dd\J	.	.	.	.	.	.	.	.	.	.	8dd\	.	.	.
.	.	.	.	16G 16g	.	.	.	.	.	.	.	.	.	.	.	.	.	.	.	.
8GG/J	.	8B\J	.	16G 16g	.	8r	.	.	.	.	.	.	.	.	.	.	8dd\J	.	.	.
.	.	.	.	16G 16g	.	.	.	.	.	.	.	.	.	.	.	.	.	.	.	.
4.BB/	.	4.B\	.	16G 16g	.	4.dd\	.	.	.	.	8G/L	.	8g\L	.	4g/	.	4.dd\	.	4ggg\	.
.	.	.	.	16G 16g	.	.	.	.	.	.	.	.	.	.	.	.	.	.	.	.
.	.	.	.	16G 16g	.	.	.	.	.	.	8G/	.	8g\	.	.	.	.	.	.	.
.	.	.	.	16G 16g	.	.	.	.	.	.	.	.	.	.	.	.	.	.	.	.
.	.	.	.	16G 16g	.	.	.	.	.	.	8G/	.	8g\	.	4g/	.	.	.	4ggg\	.
.	.	.	.	16G 16g	.	.	.	.	.	.	.	.	.	.	.	.	.	.	.	.
8D/	.	8d\	.	16G 16g	.	8ff\	.	.	.	.	8G/J	.	8g\J	.	.	.	8ff\	.	.	.
.	.	.	.	16G 16gJJ	.	.	.	.	.	.	.	.	.	.	.	.	.	.	.	.
*	*	*	*	*Xrep	*	*	*	*	*	*	*Xrep	*	*	*	*	*	*	*	*Xrep	*
!LO:LB:g=original	!	!	!	!LO:LB:g=original	!	!	!	!	!	!	!LO:LB:g=original	!	!	!	!LO:LB:g=original	!	!	!	!	!
=32	=32	=32	=32	=32	=32	=32	=32	=32	=32	=32	=32	=32	=32	=32	=32	=32	=32	=32	=32	=32
*tremolo	*	*	*	*	*	*	*	*	*	*	*	*	*	*	*	*	*	*	*	*
*	*	*tremolo	*	*	*	*	*	*	*	*	*	*	*	*	*	*	*	*	*	*
*	*	*	*	*	*	*	*	*	*	*	*	*	*tremolo	*	*	*	*	*	*	*
*	*	*	*	*	*	*	*	*	*	*	*	*	*	*	*	*	*	*	*tremolo	*
!	!	!	!	!LO:TX:a:t=5.	!	!	!	!	!	!	!	!	!	!	!	!	!	!	!	!
8C\L	.	16c\ 16eLL	.	16G 16gLL	.	8ee\L	.	.	.	.	8GL	.	8gL	.	2cc\	.	2ee\	.	8ggg\L	.
.	.	16c\ 16e	.	16G 16g	.	.	.	.	.	.	.	.	.	.	.	.	.	.	.	.
8C\	.	16c\ 16e	.	16G 16g	.	16gg\L	.	.	.	.	8G	.	8g	.	.	.	.	.	8ggg\	.
.	.	16c\ 16e	.	16G 16g	.	16gg\JJ	.	.	.	.	.	.	.	.	.	.	.	.	.	.
8C\	.	16c\ 16e	.	16G 16g	.	8gg\L	.	.	.	.	8G	.	8g	.	.	.	.	.	8ggg\	.
.	.	16c\ 16e	.	16G 16g	.	.	.	.	.	.	.	.	.	.	.	.	.	.	.	.
8C\J	.	16c\ 16e	.	16G 16g	.	8gg\J	.	.	.	.	8G	.	8g	.	.	.	.	.	8ggg\J	.
.	.	16c\ 16eJJ	.	16G 16g	.	.	.	.	.	.	.	.	.	.	.	.	.	.	.	.
*	*	*	*	*	*	*tremolo	*	*	*	*	*	*	*	*	*	*	*	*	*	*
8D\L	.	16B\ 16dLL	.	16G 16g	.	16gg\LL	.	.	.	.	8G	.	8g	.	4.b\	.	4.dd\	.	8ggg\L	.
.	.	16B\ 16d	.	16G 16g	.	16gg\	.	.	.	.	.	.	.	.	.	.	.	.	.	.
8D\	.	16B\ 16d	.	16G 16g	.	16gg\	.	.	.	.	8G	.	8g	.	.	.	.	.	8ggg\	.
.	.	16B\ 16d	.	16G 16g	.	16gg\JJ	.	.	.	.	.	.	.	.	.	.	.	.	.	.
8D\	.	16B\ 16d	.	16G 16g	.	16gg\LL	.	.	.	.	8G	.	8g	.	.	.	.	.	8ggg\	.
.	.	16B\ 16d	.	16G 16g	.	16gg\	.	.	.	.	.	.	.	.	.	.	.	.	.	.
8D\J	.	16B\ 16d	.	16G 16g	.	16gg\	.	.	.	.	8GJ	.	8gJ	.	8b\	.	8dd\	.	8ggg\J	.
.	.	16B\ 16dJJ	.	16G 16gJJ	.	16gg\JJ	.	.	.	.	.	.	.	.	.	.	.	.	.	.
=33	=33	=33	=33	=33	=33	=33	=33	=33	=33	=33	=33	=33	=33	=33	=33	=33	=33	=33	=33	=33
*	*	*	*	*rep	*	*	*	*	*	*	*	*	*	*	*	*	*	*	*rep	*
8E-X\L	.	16e-XLL	.	16G 16gLL	.	16ggLL	.	00r	.	.	8GL	.	8gL	.	4g\	.	4cc#X\	.	8ggg\L	.
.	.	16e-X	.	16G 16g	.	16gg	.	.	.	.	.	.	.	.	.	.	.	.	.	.
8E-X\	.	16e-X	.	16G 16g	.	16gg	.	.	.	.	8G	.	8g	.	.	.	.	.	8ggg\	.
.	.	16e-X	.	16G 16g	.	16gg	.	.	.	.	.	.	.	.	.	.	.	.	.	.
8E-X\	.	16e-X	.	16G 16g	.	16gg	.	.	.	.	8G	.	8g	.	4g\	.	4cc#\	.	8ggg\	.
.	.	16e-X	.	16G 16g	.	16gg	.	.	.	.	.	.	.	.	.	.	.	.	.	.
8E-X\J	.	16e-X	.	16G 16g	.	16gg	.	.	.	.	8G	.	8g	.	.	.	.	.	8ggg\J	.
.	.	16e-X	.	16G 16g	.	16gg	.	.	.	.	.	.	.	.	.	.	.	.	.	.
8E-\L	.	16e-X	.	16G 16g	.	16gg	.	.	.	.	8G	.	8g	.	4cc#X\	.	4gg\	.	8ggg\L	.
.	.	16e-X	.	16G 16g	.	16gg	.	.	.	.	.	.	.	.	.	.	.	.	.	.
8E-\	.	16e-X	.	16G 16g	.	16gg	.	.	.	.	8G	.	8g	.	.	.	.	.	8ggg\	.
.	.	16e-X	.	16G 16g	.	16gg	.	.	.	.	.	.	.	.	.	.	.	.	.	.
8E-\	.	16e-X	.	16G 16g	.	16gg	.	.	.	.	8G	.	8g	.	4cc#\	.	4gg\	.	8ggg\	.
.	.	16e-X	.	16G 16g	.	16gg	.	.	.	.	.	.	.	.	.	.	.	.	.	.
8E-\J	.	16e-X	.	16G 16g	.	16gg	.	.	.	.	8GJ	.	8gJ	.	.	.	.	.	8ggg\J	.
.	.	16e-XJJ	.	16G 16gJJ	.	16ggJJ	.	.	.	.	.	.	.	.	.	.	.	.	.	.
*	*	*	*	*Xrep	*	*	*	*	*	*	*	*	*	*	*	*	*	*	*Xtremolo	*
*Xtremolo	*	*	*	*	*	*	*	*	*	*	*	*	*	*	*	*	*	*	*Xrep	*
=34	=34	=34	=34	=34	=34	=34	=34	=34	=34	=34	=34	=34	=34	=34	=34	=34	=34	=34	=34	=34
8D\L	.	16f# 16aLL	.	16a\ 16ddLL	.	16aa\LL	.	.	.	.	8dL	.	8gL	.	2dd\	.	2ff#\	.	4fff#\	.
.	.	16f# 16a	.	16a\ 16dd	.	16aa\	.	.	.	.	.	.	.	.	.	.	.	.	.	.
8d\	.	16f# 16a	.	16a\ 16dd	.	16aa\	.	.	.	.	8d	.	8g	.	.	.	.	.	.	.
.	.	16f# 16a	.	16a\ 16dd	.	16aa\	.	.	.	.	.	.	.	.	.	.	.	.	.	.
8A\	.	16f# 16a	.	16a\ 16dd	.	16aa\	.	.	.	.	8d	.	8g	.	.	.	.	.	4fff#\	.
.	.	16f# 16a	.	16a\ 16dd	.	16aa\	.	.	.	.	.	.	.	.	.	.	.	.	.	.
8F#\J	.	16f# 16a	.	16a\ 16dd	.	16aa\	.	.	.	.	8d	.	8g	.	.	.	.	.	.	.
.	.	16f# 16a	.	16a\ 16ddJJ	.	16aa\JJ	.	.	.	.	.	.	.	.	.	.	.	.	.	.
8D\L	.	16f# 16a	.	16a\ 16ccLL	.	16cccn\LL	.	.	.	.	8d	.	8g	.	4.dd\	.	4.ff#\	.	4fff#\	.
.	.	16f# 16a	.	16a\ 16cc	.	16ccc\	.	.	.	.	.	.	.	.	.	.	.	.	.	.
8A\	.	16f# 16a	.	16a\ 16cc	.	16ccc\	.	.	.	.	8d	.	8g	.	.	.	.	.	.	.
.	.	16f# 16a	.	16a\ 16cc	.	16ccc\	.	.	.	.	.	.	.	.	.	.	.	.	.	.
8F#\	.	16f# 16a	.	16a\ 16cc	.	16ccc\	.	.	.	.	8d	.	8g	.	.	.	.	.	4fff#\	.
.	.	16f# 16a	.	16a\ 16cc	.	16ccc\	.	.	.	.	.	.	.	.	.	.	.	.	.	.
8D\J	.	16f# 16a	.	16a\ 16cc	.	16ccc\	.	.	.	.	8dJ	.	8gJ	.	8dd\	.	8ff#\	.	.	.
.	.	16f# 16aJJ	.	16a\ 16ccJJ	.	16ccc\JJ	.	.	.	.	.	.	.	.	.	.	.	.	.	.
!	!	!LO:LB:g=original	!	!	!	!	!	!	!	!	!	!	!	!	!	!	!	!	!	!
=35	=35	=35	=35	=35	=35	=35	=35	=35	=35	=35	=35	=35	=35	=35	=35	=35	=35	=35	=35	=35
*	*	*	*	*	*	*	*	*	*	*	*	*	*	*	*	*	*	*	*rep	*
8AA\L	.	16f# 16aLL	.	16d\ 16ccLL	.	16ccc\LL	.	.	.	.	8dL	.	8gL	.	4.dd\	.	4.ff#\	.	4fff#\	.
.	.	16f# 16a	.	16d\ 16cc	.	16ccc\	.	.	.	.	.	.	.	.	.	.	.	.	.	.
8F#\	.	16f# 16a	.	16d\ 16cc	.	16ccc\	.	.	.	.	8d	.	8g	.	.	.	.	.	.	.
.	.	16f# 16a	.	16d\ 16cc	.	16ccc\	.	.	.	.	.	.	.	.	.	.	.	.	.	.
8D\	.	16f# 16a	.	16d\ 16cc	.	16ccc\	.	.	.	.	8d	.	8g	.	.	.	.	.	4fff#\	.
.	.	16f# 16a	.	16d\ 16cc	.	16ccc\	.	.	.	.	.	.	.	.	.	.	.	.	.	.
8AA\J	.	16f# 16a	.	16d\ 16cc	.	16ccc\	.	.	.	.	8d	.	8g	.	8dd\	.	8ff#\	.	.	.
.	.	16f# 16a	.	16d\ 16ccJJ	.	16ccc\JJ	.	.	.	.	.	.	.	.	.	.	.	.	.	.
8FF#/L	.	16f# 16a	.	16d\ 16ccLL	.	16ccc\LL	.	.	.	.	8d	.	8g	.	4.dd\	.	4.ff#\	.	4fff#\	.
.	.	16f# 16a	.	16d\ 16cc	.	16ccc\	.	.	.	.	.	.	.	.	.	.	.	.	.	.
8D/	.	16f# 16a	.	16d\ 16cc	.	16ccc\	.	.	.	.	8d	.	8g	.	.	.	.	.	.	.
.	.	16f# 16a	.	16d\ 16cc	.	16ccc\	.	.	.	.	.	.	.	.	.	.	.	.	.	.
8AA/	.	16f# 16a	.	16d\ 16cc	.	16ccc\	.	.	.	.	8d	.	8g	.	.	.	.	.	4fff#\	.
.	.	16f# 16a	.	16d\ 16cc	.	16ccc\	.	.	.	.	.	.	.	.	.	.	.	.	.	.
8FF#/J	.	16f# 16a	.	16d\ 16cc	.	16ccc\	.	.	.	.	8dJ	.	8gJ	.	8dd\	.	8ff#\	.	.	.
.	.	16f# 16aJJ	.	16d\ 16ccJJ	.	16ccc\JJ	.	.	.	.	.	.	.	.	.	.	.	.	.	.
*	*	*Xtremolo	*	*	*	*Xtremolo	*	*	*	*	*	*	*	*	*	*	*	*	*Xrep	*
=36	=36	=36	=36	=36	=36	=36	=36	=36	=36	=36	=36	=36	=36	=36	=36	=36	=36	=36	=36	=36
4DD/ 4D	.	4f#\ 4a	.	4d\ 4cc	.	2.ff#\	.	.	.	.	4d/	.	4a\	.	8dd\	.	8ff#\	.	4bbb\	.
.	.	.	.	.	.	.	.	.	.	.	.	.	.	.	8r	.	8r	.	.	.
!	!	!	!	!	!	!	!	!	!	!	!	!	!	!	!	!LO:DY:b	!	!LO:DY:b:t=p.	!	!
4r	.	4r	.	4r	.	.	.	.	.	.	4r	.	4r	.	2dd\	p	2ff#^\	p	4r	.
2r	.	2r	.	2r	.	.	.	.	.	.	2r	.	2r	.	.	.	.	.	2r	.
.	.	.	.	.	.	8.aa\L	.	.	.	.	.	.	.	.	8.ff#\L	.	8.aa\L	.	.	.
.	.	.	.	.	.	16gg\Jk	.	.	.	.	.	.	.	.	16ee\Jk	.	16gg\Jk	.	.	.
!	!	!	!	!	!	!LO:LB:g=original	!	!	!	!	!	!	!LO:LB:g=original	!	!	!	!LO:LB:g=original	!	!LO:LB:g=original	!
=37	=37	=37	=37	=37	=37	=37	=37	=37	=37	=37	=37	=37	=37	=37	=37	=37	=37	=37	=37	=37
*	*	*	*	*	*	*^	*	*	*	*	*	*	*	*	*	*	*	*	*	*
!	!	!	!	!LO:TX:a:t=1	!	!LO:TX:b:i:t=a piacere.	!	!	!	!	!	!LO:TX:a:t=2	!	!LO:TX:a:t=2	!	!LO:TX:a:i:t=a piacere	!	!LO:TX:b:i:t=a piacere	!	!LO:TX:a:t=1	!
1r	.	1r	.	1r	.	4.ff#\	4.ryy	.	1r	.	.	0r;	.	0r;	.	4.dd\	.	4.ff#\	.	1r	.
!	!	!	!	!	!	!LO:TX:a:i:t=Clarnetti	!	!	!	!	!	!	!	!	!	!	!	!	!	!	!
.	.	.	.	.	.	8rc	8cc/ 8ee	.	.	.	.	.	.	.	.	8cc\	.	8ee\	.	.	.
.	.	.	.	.	.	2rA	4.b/ 4.dd	.	.	.	.	.	.	.	.	4.b\	.	4.dd\	.	.	.
.	.	.	.	.	.	.	8a#X/ 8cc#X	.	.	.	.	.	.	.	.	8a#X\	.	8cc#X\	.	.	.
!LO:LB:g=original	!	!	!	!	!	!	!	!	!	!	!	!	!	!	!	!	!	!	!	!	!
=38	=38	=38	=38	=38	=38	=38	=38	=38	=38	=38	=38	=38	=38	=38	=38	=38	=38	=38	=38	=38	=38
1r;	.	1r;	.	2r	.	2a/ 2cc	1r;	.	1r;	.	.	.	.	.	.	2a\	.	2cc\	.	1r;	.
.	.	.	.	2r;	.	2a#X;/ 2cc#X	.	.	.	.	.	.	.	.	.	2a#X;\	.	2cc#X;\	.	.	.
*	*	*	*	*	*	*v	*v	*	*	*	*	*	*	*	*	*	*	*	*	*	*
!LO:TX:b:t=V.ʃ.	!	!	!	!	!	!	!	!	!	!	!	!	!	!	!	!	!	!	!	!
!LO:PB:g=original	!	!	!	!	!	!	!	!	!	!	!	!	!	!	!LO:LB:g=original	!	!	!	!	!
=39	=39	=39	=39	=39	=39	=39	=39	=39	=39	=39	=39	=39	=39	=39	=39	=39	=39	=39	=39	=39
!	!	!	!	!	!LO:DY:b:t=p&colon;	!LO:TX:a:i:t=a tempo	!LO:DY:b	!	!	!	!LO:TX:a:t=18	!	!LO:TX:a:t=18	!	!LO:TX:a:t=6.	!	!LO:TX:a:t=6	!	!LO:TX:a:t=7.	!
8GG/	.	4r	.	4r	p	4r	p	2r	.	.	1r	.	1r	.	00r	.	00r	.	00r	.
8r	.	.	.	.	.	.	.	.	.	.	.	.	.	.	.	.	.	.	.	.
4r	.	8B\	.	8d/	.	8g/	.	.	.	.	.	.	.	.	.	.	.	.	.	.
.	.	8r	.	8r	.	8r	.	.	.	.	.	.	.	.	.	.	.	.	.	.
8GG/	.	4r	.	4r	.	4r	.	4r	.	.	.	.	.	.	.	.	.	.	.	.
8r	.	.	.	.	.	.	.	.	.	.	.	.	.	.	.	.	.	.	.	.
4r	.	8B\	.	8d/	.	8g/	.	8.b\	Quo-	.	.	.	.	.	.	.	.	.	.	.
.	.	8r	.	8r	.	8r	.	.	.	.	.	.	.	.	.	.	.	.	.	.
.	.	.	.	.	.	.	.	16cc\	-ni-	.	.	.	.	.	.	.	.	.	.	.
!	!	!	!	!	!	!	!	!LO:LB:g=original	!	!	!	!	!	!	!	!	!	!	!	!
=40	=40	=40	=40	=40	=40	=40	=40	=40	=40	=40	=40	=40	=40	=40	=40	=40	=40	=40	=40	=40
8GG/	.	4r	.	4r	.	4r	.	(4ee\	-am	.	1r	.	1r	.	.	.	.	.	.	.
8r	.	.	.	.	.	.	.	.	.	.	.	.	.	.	.	.	.	.	.	.
4r	.	8B\	.	8d/	.	8g/	.	4dd\)	.	.	.	.	.	.	.	.	.	.	.	.
.	.	8r	.	8r	.	8r	.	.	.	.	.	.	.	.	.	.	.	.	.	.
8D\	.	4r	.	4r	.	4r	.	8.r	.	.	.	.	.	.	.	.	.	.	.	.
8r	.	.	.	.	.	.	.	.	.	.	.	.	.	.	.	.	.	.	.	.
.	.	.	.	.	.	.	.	16cc\	Rex	.	.	.	.	.	.	.	.	.	.	.
4r	.	8A\	.	8c/ 8d	.	8f#/	.	(8.a\L	no-	.	.	.	.	.	.	.	.	.	.	.
.	.	8r	.	8r	.	8r	.	.	.	.	.	.	.	.	.	.	.	.	.	.
.	.	.	.	.	.	.	.	16b\Jk)	.	.	.	.	.	.	.	.	.	.	.	.
!	!	!	!	!LO:LB:g=original	!	!	!	!	!	!	!	!	!	!	!	!	!	!	!	!
=41	=41	=41	=41	=41	=41	=41	=41	=41	=41	=41	=41	=41	=41	=41	=41	=41	=41	=41	=41	=41
*rep	*	*	*	*	*	*rep	*	*	*	*	*	*	*	*	*	*	*	*	*	*
8GG/	.	4r	.	4r	.	4r	.	2g\	-ster	.	1r	.	1r	.	.	.	.	.	.	.
8r	.	.	.	.	.	.	.	.	.	.	.	.	.	.	.	.	.	.	.	.
4r	.	8B\	.	8d/	.	8g/	.	.	.	.	.	.	.	.	.	.	.	.	.	.
.	.	8r	.	8r	.	8r	.	.	.	.	.	.	.	.	.	.	.	.	.	.
8D\	.	4r	.	4r	.	4r	.	4r	.	.	.	.	.	.	.	.	.	.	.	.
8r	.	.	.	.	.	.	.	.	.	.	.	.	.	.	.	.	.	.	.	.
4r	.	8c\	.	8d/	.	8f#/	.	8.a\	spe-	.	.	.	.	.	.	.	.	.	.	.
.	.	8r	.	8r	.	8r	.	.	.	.	.	.	.	.	.	.	.	.	.	.
.	.	.	.	.	.	.	.	16b\	-rat	.	.	.	.	.	.	.	.	.	.	.
*Xrep	*	*	*	*	*	*Xrep	*	*	*	*	*	*	*	*	*	*	*	*	*	*
!	!	!LO:LB:g=original	!	!	!	!	!	!	!	!	!	!	!	!	!	!	!	!	!	!
=42	=42	=42	=42	=42	=42	=42	=42	=42	=42	=42	=42	=42	=42	=42	=42	=42	=42	=42	=42	=42
8GG/	.	4r	.	4r	.	4r	.	4g\	in	.	1r	.	1r	.	.	.	.	.	.	.
8r	.	.	.	.	.	.	.	.	.	.	.	.	.	.	.	.	.	.	.	.
4r	.	8B\	.	8d/	.	8g/	.	4g\	te	.	.	.	.	.	.	.	.	.	.	.
.	.	8r	.	8r	.	8r	.	.	.	.	.	.	.	.	.	.	.	.	.	.
8C\	.	4r	.	4r	.	4r	.	8.gg\L	Do-	.	.	.	.	.	.	.	.	.	.	.
8r	.	.	.	.	.	.	.	.	.	.	.	.	.	.	.	.	.	.	.	.
.	.	.	.	.	.	.	.	16ee\Jk	.	.	.	.	.	.	.	.	.	.	.	.
4r	.	8c\	.	8e/	.	8a/	.	8.cc\L	-mi-	.	.	.	.	.	.	.	.	.	.	.
.	.	8r	.	8r	.	8r	.	.	.	.	.	.	.	.	.	.	.	.	.	.
.	.	.	.	.	.	.	.	16b\Jk	.	.	.	.	.	.	.	.	.	.	.	.
=43	=43	=43	=43	=43	=43	=43	=43	=43	=43	=43	=43	=43	=43	=43	=43	=43	=43	=43	=43	=43
4r	.	4r	.	4r	.	4r	.	2a\	-ne	.	1r	.	1r	.	0r	.	0r	.	0r	.
8D\	.	8A/	.	8c/ 8f#	.	8c/ 8f#	.	.	.	.	.	.	.	.	.	.	.	.	.	.
8r	.	8r	.	8r	.	8r	.	.	.	.	.	.	.	.	.	.	.	.	.	.
4r	.	8A/	.	8c/ 8f#	.	8c/ 8f#	.	4r	.	.	.	.	.	.	.	.	.	.	.	.
.	.	8r	.	8r	.	8r	.	.	.	.	.	.	.	.	.	.	.	.	.	.
8D\	.	8A/	.	8c/ 8f#	.	8c/ 8f#	.	8.b\	Quo-	.	.	.	.	.	.	.	.	.	.	.
8r	.	8r	.	8r	.	8r	.	.	.	.	.	.	.	.	.	.	.	.	.	.
.	.	.	.	.	.	.	.	16cc\	-ni-	.	.	.	.	.	.	.	.	.	.	.
!	!	!	!	!	!	!LO:LB:g=original	!	!LO:LB:g=original	!	!	!	!	!	!	!	!	!	!	!	!
=44	=44	=44	=44	=44	=44	=44	=44	=44	=44	=44	=44	=44	=44	=44	=44	=44	=44	=44	=44	=44
4r	.	4r	.	4r	.	4r	.	(4ee\	-am	.	1r	.	1r	.	.	.	.	.	.	.
8G\	.	8B\	.	8d/	.	8g/	.	4dd\)	.	.	.	.	.	.	.	.	.	.	.	.
8r	.	8r	.	8r	.	8r	.	.	.	.	.	.	.	.	.	.	.	.	.	.
4r	.	4r	.	4r	.	4r	.	8.r	.	.	.	.	.	.	.	.	.	.	.	.
.	.	.	.	.	.	.	.	16cc\	Rex	.	.	.	.	.	.	.	.	.	.	.
8D\	.	8c\	.	8c/ 8d	.	8f#/	.	(8.a\	no-	.	.	.	.	.	.	.	.	.	.	.
8r	.	8r	.	8r	.	8r	.	.	.	.	.	.	.	.	.	.	.	.	.	.
.	.	.	.	.	.	.	.	16b\)	.	.	.	.	.	.	.	.	.	.	.	.
!LO:LB:g=original	!	!	!	!	!	!	!	!	!	!	!	!	!	!	!	!	!	!	!	!
=45	=45	=45	=45	=45	=45	=45	=45	=45	=45	=45	=45	=45	=45	=45	=45	=45	=45	=45	=45	=45
4r	.	4r	.	4r	.	8g/	.	8g\	-ster	.	1r	.	1r	.	4r	.	4r	.	1r	.
.	.	.	.	.	.	8r	.	8r	.	.	.	.	.	.	.	.	.	.	.	.
8GG/	.	8B\	.	8d/ 8e	.	[4bb\	.	[4bb\	spe-	.	.	.	.	.	4gg\	.	4bb\	.	.	.
8r	.	8r	.	8r	.	.	.	.	.	.	.	.	.	.	.	.	.	.	.	.
!	!	!	!	!	!	!LO:TX:a:t=P:problem=klamra łukowa	!	!	!	!	!	!	!	!	!	!	!	!	!	!
4r	.	4r	.	4r	.	12bb\L]	.	12bb\L]	.	.	.	.	.	.	12gg\L	.	12bb\L	.	.	.
.	.	.	.	.	.	12aa\	.	12aa\	.	.	.	.	.	.	12ff#\	.	12aa\	.	.	.
.	.	.	.	.	.	12gg\J	.	12gg\J	.	.	.	.	.	.	12ee\J	.	12gg\J	.	.	.
!	!	!	!	!	!	!LO:TX:a:t=P:problem=klamra łukowa	!	!	!	!	!	!	!	!	!	!	!	!	!	!
8C/	.	8c\	.	8e/	.	12gg\L	.	12gg\L	-rat	.	.	.	.	.	12ee\L	.	12gg\L	.	.	.
.	.	.	.	.	.	12ff#\	.	12ff#\	.	.	.	.	.	.	12dd\	.	12ff#\	.	.	.
8r	.	8r	.	8r	.	.	.	.	.	.	.	.	.	.	.	.	.	.	.	.
.	.	.	.	.	.	12ee\J	.	12ee\J	.	.	.	.	.	.	12cc\J	.	12ee\J	.	.	.
=46	=46	=46	=46	=46	=46	=46	=46	=46	=46	=46	=46	=46	=46	=46	=46	=46	=46	=46	=46	=46
.	.	.	.	.	.	.	.	8qqgg/	.	.	.	.	.	.	8qqee/	.	8qqgg/	.	.	.
4r	.	4r	.	4r	.	8.ff#\L	.	8.ff#\L	in	.	1r	.	1r	.	8.dd\L	.	8.ff#\L	.	4r	.
.	.	.	.	.	.	16ee\Jk	.	16ee\Jk	.	.	.	.	.	.	16cc\Jk	.	16ee\Jk	.	.	.
8D\	.	8B\	.	8d/	.	4dd\	.	[4dd\	te	.	.	.	.	.	4b\	.	4dd\	.	4bb\	.
8r	.	8r	.	8r	.	.	.	.	.	.	.	.	.	.	.	.	.	.	.	.
*	*	*	*	*	*	*	*	*tuplet	*	*	*	*	*	*	*	*	*	*	*	*
!	!	!	!	!	!	!LO:TX:a:t=P:problem=klamra łukowa	!	!LO:TX:a:t=P:problem=klamra łukowa	!	!	!	!	!	!	!	!	!	!	!	!
4r	.	4r	.	4r	.	12dd\L	.	12dd\]	.	.	.	.	.	.	12b\L	.	12dd\L	.	12bb\L	.
.	.	.	.	.	.	12ee\	.	12ee\L	.	.	.	.	.	.	12cc\	.	12ee\	.	12ccc\	.
.	.	.	.	.	.	12dd\J	.	12dd\J	.	.	.	.	.	.	12b\J	.	12dd\J	.	12bb\J	.
!	!	!	!	!	!	!LO:TX:a:t=P:problem=klamra łukowa	!	!LO:TX:a:t=P:problem=klamra łukowa	!	!	!	!	!	!	!	!	!	!	!	!
8D\	.	8A/	.	8c/ 8d	.	12cc\L	.	12cc\L	Do-	.	.	.	.	.	12a/L	.	12cc\L	.	12aa\L	.
.	.	.	.	.	.	12dd\	.	12dd\J	.	.	.	.	.	.	12b/	.	12dd\	.	12bb\	.
8r	.	8r	.	8r	.	.	.	.	.	.	.	.	.	.	.	.	.	.	.	.
.	.	.	.	.	.	12cc\J	.	12cc\	-mi-	.	.	.	.	.	12a/J	.	12cc\J	.	12aa\J	.
*	*	*	*	*	*	*	*	*Xtuplet	*	*	*	*	*	*	*	*	*	*	*	*
!	!	!	!	!	!	!	!	!LO:TX:b:t=V.ʃ.	!	!	!	!	!	!	!	!	!	!	!	!
!	!	!LO:LB:g=original	!	!LO:LB:g=original	!	!	!	!LO:PB:g=original	!	!	!	!	!	!	!	!	!	!	!	!
=47	=47	=47	=47	=47	=47	=47	=47	=47	=47	=47	=47	=47	=47	=47	=47	=47	=47	=47	=47	=47
4r	.	4r	.	4r	.	2b\	.	2b\	-ne	.	1r	.	1r	.	4g/	.	4b\	.	4gg\	.
8GG/	.	8B/	.	8d/	.	.	.	.	.	.	.	.	.	.	4r	.	4r	.	4r	.
8r	.	8r	.	8r	.	.	.	.	.	.	.	.	.	.	.	.	.	.	.	.
4r	.	4r	.	4r	.	4r	.	4r	.	.	.	.	.	.	2r	.	2r	.	2r	.
8GG/	.	8B/	.	8e/	.	8.f#/L	.	8.f#\	in	.	.	.	.	.	.	.	.	.	.	.
8r	.	8r	.	8r	.	.	.	.	.	.	.	.	.	.	.	.	.	.	.	.
.	.	.	.	.	.	16g/Jk	.	16g\	ve-	.	.	.	.	.	.	.	.	.	.	.
!	!	!	!	!	!	!	!	!	!	!	!	!	!	!	!	!	!LO:LB:g=original	!	!	!
=48	=48	=48	=48	=48	=48	=48	=48	=48	=48	=48	=48	=48	=48	=48	=48	=48	=48	=48	=48	=48
!	!	!	!	!	!	!	!	!	!	!	!	!	!	!	!LO:TX:a:t=5.	!	!LO:TX:a:t=5	!	!LO:TX:a:t=7.	!
4r	.	8d\	.	4r	.	4r	.	4a\	-niae-	.	1r	.	1r	.	00r	.	00r	.	00r	.
.	.	8r	.	.	.	.	.	.	.	.	.	.	.	.	.	.	.	.	.	.
8D\	.	4r	.	8f#/	.	4a/	.	4a\	-tur	.	.	.	.	.	.	.	.	.	.	.
8r	.	.	.	8r	.	.	.	.	.	.	.	.	.	.	.	.	.	.	.	.
4r	.	8c#X\	.	4r	.	4r	.	4b-X\	ma-	.	.	.	.	.	.	.	.	.	.	.
.	.	8r	.	.	.	.	.	.	.	.	.	.	.	.	.	.	.	.	.	.
8C#X\	.	4r	.	8g/	.	4b-X/	.	4b-\	-nus	.	.	.	.	.	.	.	.	.	.	.
8r	.	.	.	8r	.	.	.	.	.	.	.	.	.	.	.	.	.	.	.	.
!	!	!	!	!	!	!LO:LB:g=original	!	!	!	!	!	!	!	!	!	!	!	!	!	!
=49	=49	=49	=49	=49	=49	=49	=49	=49	=49	=49	=49	=49	=49	=49	=49	=49	=49	=49	=49	=49
8D\	.	8d\	.	4r	.	4r	.	(2a\	tu-	.	1r	.	1r	.	.	.	.	.	.	.
8r	.	8r	.	.	.	.	.	.	.	.	.	.	.	.	.	.	.	.	.	.
4r	.	4r	.	8f#/	.	4a/	.	.	.	.	.	.	.	.	.	.	.	.	.	.
.	.	.	.	8r	.	.	.	.	.	.	.	.	.	.	.	.	.	.	.	.
8BB\	.	8B\	.	4r	.	4r	.	8b\)	-a	.	.	.	.	.	.	.	.	.	.	.
8r	.	8r	.	.	.	.	.	8r	.	.	.	.	.	.	.	.	.	.	.	.
4r	.	4r	.	8d/ 8e	.	8.a\L	.	8.a\	om-	.	.	.	.	.	.	.	.	.	.	.
.	.	.	.	8r	.	.	.	.	.	.	.	.	.	.	.	.	.	.	.	.
.	.	.	.	.	.	16b\Jk	.	16b\	-ni-	.	.	.	.	.	.	.	.	.	.	.
!LO:LB:g=original	!	!	!	!	!	!	!	!	!	!	!	!	!	!	!	!	!	!	!	!
=50	=50	=50	=50	=50	=50	=50	=50	=50	=50	=50	=50	=50	=50	=50	=50	=50	=50	=50	=50	=50
8AA/	.	4r	.	4r	.	8cc\	.	8cc\	-bus	.	1r	.	1r	.	.	.	.	.	.	.
8r	.	.	.	.	.	8r	.	8r	.	.	.	.	.	.	.	.	.	.	.	.
4r	.	8c\	.	8e/	.	4e/	.	8ee\	ini-	.	.	.	.	.	.	.	.	.	.	.
.	.	8r	.	8r	.	.	.	(8ee\	-mi-	.	.	.	.	.	.	.	.	.	.	.
8E\	.	4r	.	4r	.	4r	.	8b\)	.	.	.	.	.	.	.	.	.	.	.	.
8r	.	.	.	.	.	.	.	8r	.	.	.	.	.	.	.	.	.	.	.	.
4r	.	8d\	.	8e/	.	8e/ 8b	.	4ee\	-cis	.	.	.	.	.	.	.	.	.	.	.
.	.	8r	.	8r	.	8r	.	.	.	.	.	.	.	.	.	.	.	.	.	.
!	!	!	!	!	!	!	!	!LO:LB:g=original	!	!	!	!	!	!	!	!	!	!	!	!
=51	=51	=51	=51	=51	=51	=51	=51	=51	=51	=51	=51	=51	=51	=51	=51	=51	=51	=51	=51	=51
8AA/	.	8r	.	4r	.	4r	.	2a\	ejus	.	1r	.	1r	.	.	.	.	.	.	.
8r	.	8c\	.	.	.	.	.	.	.	.	.	.	.	.	.	.	.	.	.	.
4r	.	4r	.	8e/	.	8e/ 8a	.	.	.	.	.	.	.	.	.	.	.	.	.	.
.	.	.	.	8r	.	8r	.	.	.	.	.	.	.	.	.	.	.	.	.	.
8D\	.	4r	.	4r	.	4r	.	4r	.	.	.	.	.	.	.	.	.	.	.	.
8r	.	.	.	.	.	.	.	.	.	.	.	.	.	.	.	.	.	.	.	.
4r	.	8A/	.	8c/ 8e	.	8g/	.	8.b\	et	.	.	.	.	.	.	.	.	.	.	.
.	.	8r	.	8r	.	8r	.	.	.	.	.	.	.	.	.	.	.	.	.	.
.	.	.	.	.	.	.	.	16cc\	dex-	.	.	.	.	.	.	.	.	.	.	.
!	!	!LO:PB:g=original	!	!	!	!	!	!	!	!	!	!	!	!	!	!	!	!	!	!
=52	=52	=52	=52	=52	=52	=52	=52	=52	=52	=52	=52	=52	=52	=52	=52	=52	=52	=52	=52	=52
8GG/	.	4r	.	4r	.	4r	.	4ee\	-te-	.	1r	.	1r	.	1r	.	1r	.	0r	.
8r	.	.	.	.	.	.	.	.	.	.	.	.	.	.	.	.	.	.	.	.
.	.	.	.	.	.	.	.	8qqee/	.	.	.	.	.	.	.	.	.	.	.	.
4r	.	8B/	.	8d/	.	8g/	.	4dd\	-ra	.	.	.	.	.	.	.	.	.	.	.
.	.	8r	.	8r	.	8r	.	.	.	.	.	.	.	.	.	.	.	.	.	.
8D\	.	4r	.	4r	.	4r	.	8.r	.	.	.	.	.	.	.	.	.	.	.	.
8r	.	.	.	.	.	.	.	.	.	.	.	.	.	.	.	.	.	.	.	.
.	.	.	.	.	.	.	.	16cc\	tu-	.	.	.	.	.	.	.	.	.	.	.
4r	.	8A/	.	8c/ 8d	.	8f#/	.	8.a\L	.	.	.	.	.	.	.	.	.	.	.	.
.	.	8r	.	8r	.	8r	.	.	.	.	.	.	.	.	.	.	.	.	.	.
.	.	.	.	.	.	.	.	16b\Jk	.	.	.	.	.	.	.	.	.	.	.	.
!	!	!	!	!LO:LB:g=original	!	!	!	!	!	!	!	!	!	!	!	!	!	!	!	!
=53	=53	=53	=53	=53	=53	=53	=53	=53	=53	=53	=53	=53	=53	=53	=53	=53	=53	=53	=53	=53
8GG/	.	4r	.	4r	.	4r	.	8g\	-a	.	1r	.	1r	.	4r	.	4r	.	.	.
8r	.	.	.	.	.	.	.	8r	.	.	.	.	.	.	.	.	.	.	.	.
4r	.	8B/	.	8d/	.	8g/	.	[4bb\	pro-	.	.	.	.	.	4gg\	.	4bb\	.	.	.
.	.	8r	.	8r	.	8r	.	.	.	.	.	.	.	.	.	.	.	.	.	.
8C/	.	4r	.	4r	.	4r	.	12bb\L]	.	.	.	.	.	.	12gg\L	.	12bb\L	.	.	.
.	.	.	.	.	.	.	.	12aa\	-te-	.	.	.	.	.	12ff#\	.	12aa\	.	.	.
8r	.	.	.	.	.	.	.	.	.	.	.	.	.	.	.	.	.	.	.	.
.	.	.	.	.	.	.	.	12gg\J	.	.	.	.	.	.	12ee\J	.	12gg\J	.	.	.
4r	.	8c\	.	8e/	.	8c/ 8e 8a	.	12gg\L	-gat	.	.	.	.	.	12ee\L	.	12gg\L	.	.	.
.	.	.	.	.	.	.	.	12ff#\	.	.	.	.	.	.	12dd\	.	12ff#\	.	.	.
.	.	8r	.	8r	.	8r	.	.	.	.	.	.	.	.	.	.	.	.	.	.
.	.	.	.	.	.	.	.	12ee\J	.	.	.	.	.	.	12cc\J	.	12ee\J	.	.	.
!	!	!	!	!	!	!	!	!	!	!	!	!	!	!	!LO:LB:g=original	!	!	!	!	!
=54	=54	=54	=54	=54	=54	=54	=54	=54	=54	=54	=54	=54	=54	=54	=54	=54	=54	=54	=54	=54
.	.	.	.	.	.	.	.	8qqgg/	.	.	.	.	.	.	8qqee/	.	8qqgg/	.	.	.
8D\	.	4r	.	4r	.	4r	.	8.ff#\L	e-	.	1r	.	1r	.	8.dd\L	.	8.ff#\L	.	1r	.
8r	.	.	.	.	.	.	.	.	.	.	.	.	.	.	.	.	.	.	.	.
.	.	.	.	.	.	.	.	16ee\Jk	.	.	.	.	.	.	16cc\Jk	.	16ee\Jk	.	.	.
4r	.	8B/	.	8d/	.	8c/ 8g	.	[4dd\	.	.	.	.	.	.	4b\	.	4dd\	.	.	.
.	.	8r	.	8r	.	8r	.	.	.	.	.	.	.	.	.	.	.	.	.	.
8D\	.	4r	.	4r	.	4r	.	12dd\L]	.	.	.	.	.	.	12b\L	.	12dd\L	.	.	.
.	.	.	.	.	.	.	.	12ee\	.	.	.	.	.	.	12cc\	.	12ee\	.	.	.
8r	.	.	.	.	.	.	.	.	.	.	.	.	.	.	.	.	.	.	.	.
.	.	.	.	.	.	.	.	12dd\J	.	.	.	.	.	.	12b\J	.	12dd\J	.	.	.
4r	.	8A/	.	8c/ 8d	.	8c/ 8f#	.	12cc\L	.	.	.	.	.	.	12a/L	.	12cc\L	.	.	.
.	.	.	.	.	.	.	.	12dd\	.	.	.	.	.	.	12b/	.	12dd\	.	.	.
.	.	8r	.	8r	.	8r	.	.	.	.	.	.	.	.	.	.	.	.	.	.
.	.	.	.	.	.	.	.	12cc\J	.	.	.	.	.	.	12a/J	.	12cc\J	.	.	.
!LO:LB:g=original	!	!	!	!	!	!LO:LB:g=original	!	!LO:LB:g=original	!	!	!	!	!	!	!	!	!	!	!	!
=55	=55	=55	=55	=55	=55	=55	=55	=55	=55	=55	=55	=55	=55	=55	=55	=55	=55	=55	=55	=55
8G\	.	8B\	.	8d/	.	8B/ 8g	.	8b\	-um	.	1r	.	1r	.	8g/	.	8b\	.	4r	.
8r	.	8r	.	8r	.	8r	.	8r	.	.	.	.	.	.	8r	.	8r	.	.	.
8GG/	.	8B\	.	8d/	.	8B/ 8g	.	[4bb\	pro-	.	.	.	.	.	4gg\	.	4bb\	.	4bb\	.
8r	.	8r	.	8r	.	8r	.	.	.	.	.	.	.	.	.	.	.	.	.	.
8C/	.	8c\	.	8c/	.	8e/ 8a	.	12bb\L]	.	.	.	.	.	.	12gg\L	.	12bb\L	.	12bb\L	.
.	.	.	.	.	.	.	.	12aa\	-te-	.	.	.	.	.	12ff#\	.	12aa\	.	12aa\	.
8r	.	8r	.	8r	.	8r	.	.	.	.	.	.	.	.	.	.	.	.	.	.
.	.	.	.	.	.	.	.	12gg\J	.	.	.	.	.	.	12ee\J	.	12gg\J	.	12gg\J	.
8C/	.	8c\	.	8c/	.	8e/ 8a	.	12gg\L	-gat	.	.	.	.	.	12ee\L	.	12gg\L	.	12ggg\L	.
.	.	.	.	.	.	.	.	12ff#\	.	.	.	.	.	.	12dd\	.	12ff#\	.	12fff#\	.
8r	.	8r	.	8r	.	8r	.	.	.	.	.	.	.	.	.	.	.	.	.	.
.	.	.	.	.	.	.	.	12ee\J	.	.	.	.	.	.	12cc\J	.	12ee\J	.	12eee\J	.
=56	=56	=56	=56	=56	=56	=56	=56	=56	=56	=56	=56	=56	=56	=56	=56	=56	=56	=56	=56	=56
*	*	*	*	*	*	*	*	*	*	*	*	*	*	*	*tuplet	*	*	*	*	*
!	!	!	!	!	!	!	!	!	!	!	!	!	!	!	!LO:TX:a:t=P:problem=oznaczenie trioli klamra łukowa z trójką	!	!	!	!	!
8D\	.	8d\	.	8G/	.	8B/ 8g	.	12dd\L	e-	.	1r	.	1r	.	6b\	.	12dd\L	.	12ddd\L	.
.	.	.	.	.	.	.	.	12ff#\	.	.	.	.	.	.	.	.	12ff#\	.	12fff#\	.
8r	.	8r	.	8r	.	8r	.	.	.	.	.	.	.	.	.	.	.	.	.	.
.	.	.	.	.	.	.	.	12gg\J	.	.	.	.	.	.	12b\	.	12gg\J	.	12ggg\J	.
*	*	*	*	*	*	*	*	*	*	*	*	*	*	*	*Xtuplet	*	*	*	*	*
8D\	.	8D/	.	8G/	.	8B/ 8g	.	[4dd\	.	.	.	.	.	.	4b\	.	4dd\	.	4ddd\	.
8r	.	8r	.	8r	.	8r	.	.	.	.	.	.	.	.	.	.	.	.	.	.
!	!	!	!	!	!	!	!	!	!	!	!	!	!	!	!	!	!	!	!LO:LB:g=original	!
8D\	.	8F#/	.	8A/	.	8c/ 8f#	.	12dd\L]	.	.	.	.	.	.	12b\L	.	12dd\L	.	12ddd\L	.
.	.	.	.	.	.	.	.	12ee\	.	.	.	.	.	.	12cc\	.	12ee\	.	12eee\	.
8r	.	8r	.	8r	.	8r	.	.	.	.	.	.	.	.	.	.	.	.	.	.
.	.	.	.	.	.	.	.	12dd\J	.	.	.	.	.	.	12b\J	.	12dd\J	.	12ddd\J	.
8D\	.	8F#/	.	8A/	.	8c/ 8f#	.	12cc\L	.	.	.	.	.	.	12a/L	.	12cc\L	.	12ccc\L	.
.	.	.	.	.	.	.	.	12a\	.	.	.	.	.	.	12f#/	.	12a\	.	12aa\	.
8r	.	8r	.	8r	.	8r	.	.	.	.	.	.	.	.	.	.	.	.	.	.
.	.	.	.	.	.	.	.	12b\J	.	.	.	.	.	.	12d/J	.	12b\J	.	12bb\J	.
!	!	!LO:LB:g=original	!	!	!	!	!	!	!	!	!	!	!	!	!	!	!LO:LB:g=original	!	!	!
=57	=57	=57	=57	=57	=57	=57	=57	=57	=57	=57	=57	=57	=57	=57	=57	=57	=57	=57	=57	=57
!LO:TX:a:t=P:problem=takty 57-64 ujęte w repetycję	!	!	!	!	!	!	!	!	!	!	!	!	!	!	!	!	!	!	!	!
!LO:TX:b:t=pizzicato	!	!LO:TX:a:t=P:problem=takty 57-64 ujęte w repetycję	!LO:DY:b	!	!	!LO:TX:a:t=P:problem=takty 57-64 ujęte w repetycję	!	!	!	!	!	!LO:DY:b:t=p&colon;	!	!LO:DY:b:t=p&colon;	!	!	!	!	!	!
8A\	.	8F#/L	pp	8G/L	.	8g\L 8b	.	8g\	-um	.	4G/	p	4g\	p	4g/	.	4g/	.	4gg\	.
8r	.	8B/J	.	8g/J	.	8g\J 8b	.	8r	.	.	.	.	.	.	.	.	.	.	.	.
8A\	.	8r	.	8r	.	8r	.	4r	.	.	4r	.	4r	.	4r	.	4r	.	4r	.
8r	.	8B/	.	8g/	.	8b\	.	.	.	.	.	.	.	.	.	.	.	.	.	.
8B\	.	8r	.	8r	.	8r	.	4r	.	.	2r	.	2r	.	4r	.	4r	.	2r	.
8r	.	8B/	.	8g/	.	8b\	.	.	.	.	.	.	.	.	.	.	.	.	.	.
!	!	!	!	!	!	!	!	!	!	!	!	!	!	!	!	!	!	!LO:DY:b	!	!
8G\	.	8r	.	8r	.	8r	.	8.dd\	in	.	.	.	.	.	8b/L	.	8dd\L	pp	.	.
8r	.	8B/	.	8g/	.	8b\	.	.	.	.	.	.	.	.	8b/J	.	8gg\J	.	.	.
.	.	.	.	.	.	.	.	16gg\	ve-	.	.	.	.	.	.	.	.	.	.	.
!	!	!	!	!LO:PB:g=original	!	!	!	!	!	!	!	!	!	!	!LO:LB:g=original	!	!	!	!	!
=58	=58	=58	=58	=58	=58	=58	=58	=58	=58	=58	=58	=58	=58	=58	=58	=58	=58	=58	=58	=58
!	!	!	!	!	!	!	!	!	!	!	!LO:TX:a:t=19	!	!LO:TX:a:t=19.	!	!LO:TX:a:t=P:problem=takty 58-65 ujęte w repetycję	!	!	!	!LO:TX:a:t=19.	!
4D\	.	8r	.	8r	.	8r	.	8gg\	-ni-	.	1r	.	1r	.	8b\	.	8gg\	.	1r	.
.	.	8A/	.	8f#/	.	8a\ 8cc	.	4ff#\	-a-	.	.	.	.	.	4dd\	.	4ff#\	.	.	.
4d\	.	8r	.	8r	.	8r	.	.	.	.	.	.	.	.	.	.	.	.	.	.
.	.	8A/	.	8f#/	.	8a\ 8cc	.	4b^\	-tur	.	.	.	.	.	4g#X\	.	4b\	.	.	.
4D\	.	8r	.	8r	.	8r	.	.	.	.	.	.	.	.	.	.	.	.	.	.
.	.	8A/	.	8f#/	.	8a\ 8cc	.	4cc^\	ma-	.	.	.	.	.	4a\	.	4cc\	.	.	.
4d\	.	8r	.	8r	.	8r	.	.	.	.	.	.	.	.	.	.	.	.	.	.
.	.	8A/	.	8f#/	.	8a\ 8cc	.	8ee\	-nus	.	.	.	.	.	8cc\	.	[8ee\	.	.	.
!	!	!	!	!	!	!	!	!LO:LB:g=original	!	!	!	!	!	!	!	!	!	!	!	!
=59	=59	=59	=59	=59	=59	=59	=59	=59	=59	=59	=59	=59	=59	=59	=59	=59	=59	=59	=59	=59
4G\	.	8r	.	8r	.	8r	.	(8ee\	tu-	.	1r	.	1r	.	8cc\	.	8ee\]	.	1r	.
.	.	8B/	.	8g/	.	8b\	.	4dd\)	.	.	.	.	.	.	4b\	.	4dd\	.	.	.
4A\	.	8r	.	8r	.	8r	.	.	.	.	.	.	.	.	.	.	.	.	.	.
.	.	8B/	.	8g/	.	8b\	.	8cc\	.	.	.	.	.	.	8a\	.	8cc\	.	.	.
4B\	.	8r	.	8r	.	8r	.	8b\	-a	.	.	.	.	.	8g\	.	8b\	.	.	.
.	.	8B/	.	8g/	.	8b\	.	8r	.	.	.	.	.	.	8r	.	8r	.	.	.
4G\	.	8r	.	8r	.	8r	.	8dd\	om-	.	.	.	.	.	8b\L	.	8dd\L	.	.	.
.	.	8B/	.	8g/	.	8b\	.	8gg\	-ni-	.	.	.	.	.	8b\J	.	8gg\J	.	.	.
!	!	!	!	!	!	!LO:LB:g=original	!	!	!	!	!	!	!	!	!	!	!	!	!	!
=60	=60	=60	=60	=60	=60	=60	=60	=60	=60	=60	=60	=60	=60	=60	=60	=60	=60	=60	=60	=60
4D\	.	8r	.	8r	.	8r	.	8gg\	-bus	.	1r	.	1r	.	8b\	.	8gg\	.	1r	.
.	.	8A/	.	8f#/	.	8a\	.	4ff#\	i-	.	.	.	.	.	4dd\	.	4ff#\	.	.	.
4d\	.	8r	.	8r	.	8r	.	.	.	.	.	.	.	.	.	.	.	.	.	.
.	.	8A/	.	8f#/	.	8a\	.	4b^\	-ni-	.	.	.	.	.	[8g#X\	.	4b\	.	.	.
4D\	.	8r	.	8r	.	8r	.	.	.	.	.	.	.	.	8g#\]	.	.	.	.	.
.	.	8A/	.	8f#/	.	8a\	.	4cc^\	-mi-	.	.	.	.	.	4a\	.	4cc\	.	.	.
4d\	.	8r	.	8r	.	8r	.	.	.	.	.	.	.	.	.	.	.	.	.	.
.	.	8A/	.	8f#/	.	8a\	.	8ee\	-cis	.	.	.	.	.	8cc\	.	(8ee\	.	.	.
!LO:LB:g=original	!	!	!	!	!	!	!	!	!	!	!	!	!	!	!	!	!	!	!	!
=61	=61	=61	=61	=61	=61	=61	=61	=61	=61	=61	=61	=61	=61	=61	=61	=61	=61	=61	=61	=61
4G\	.	8r	.	8r	.	8r	.	(8ee\	e-	.	1r	.	1r	.	8cc\	.	8ee\)	.	1r	.
.	.	8B/	.	8g/	.	8b\	.	4dd\	.	.	.	.	.	.	4b\	.	4dd\	.	.	.
4A\	.	8r	.	8r	.	8r	.	.	.	.	.	.	.	.	.	.	.	.	.	.
.	.	8B/	.	8g/	.	8b\	.	8cc\)	.	.	.	.	.	.	8a\	.	8cc\	.	.	.
4B\	.	8r	.	8r	.	8r	.	8b\	-jus	.	.	.	.	.	8g\	.	8b\	.	.	.
.	.	8B/	.	8g/	.	8b\	.	8r	.	.	.	.	.	.	8r	.	8r	.	.	.
4G\	.	8r	.	8r	.	8r	.	8dd\L	et	.	.	.	.	.	8b\L	.	8dd\L	.	.	.
.	.	8B/	.	8g/	.	8b\	.	8ee\J	dex-	.	.	.	.	.	8cc\J	.	8ee\J	.	.	.
!	!	!LO:LB:g=original	!	!	!	!	!	!	!	!	!	!	!	!	!LO:LB:g=original	!	!LO:LB:g=original	!	!	!
=62	=62	=62	=62	=62	=62	=62	=62	=62	=62	=62	=62	=62	=62	=62	=62	=62	=62	=62	=62	=62
4G#X\	.	8r	.	8r	.	8r	.	8ffn\	-te-	.	1r	.	1r	.	8dd\	.	8ffn\	.	1r	.
.	.	8B/	.	8g#X/	.	8dd\	.	4ee\	-ra	.	.	.	.	.	4cc\	.	4ee\	.	.	.
4B\	.	8r	.	8r	.	8r	.	.	.	.	.	.	.	.	.	.	.	.	.	.
.	.	8B/	.	8g#/	.	8dd\	.	4ff\	.	.	.	.	.	.	4dd\	.	4ff\	.	.	.
4G#\	.	8r	.	8r	.	8r	.	.	.	.	.	.	.	.	.	.	.	.	.	.
.	.	8B/	.	8g#/	.	8dd\	.	4ee\	.	.	.	.	.	.	4cc\	.	4ee\	.	.	.
4E\	.	8r	.	8r	.	8r	.	.	.	.	.	.	.	.	.	.	.	.	.	.
.	.	8B/	.	8g#/	.	8dd\	.	8dd\	tu-	.	.	.	.	.	8b\	.	8dd\	.	.	.
!	!	!	!	!LO:LB:g=original	!	!	!	!LO:LB:g=original	!	!	!	!	!	!	!	!	!	!	!	!
=63	=63	=63	=63	=63	=63	=63	=63	=63	=63	=63	=63	=63	=63	=63	=63	=63	=63	=63	=63	=63
4A\	.	8c\L	.	8a\L	.	8cc\	.	8cc\	-a	.	1r	.	1r	.	4a/	.	4cc\	.	1r	.
.	.	8e\J	.	8cc\J	.	8r	.	8r	.	.	.	.	.	.	.	.	.	.	.	.
4B\	.	8r	.	8r	.	[4aa\	.	[4aa\	pro-	.	.	.	.	.	4r	.	4r	.	.	.
.	.	8e\	.	8cc\	.	.	.	.	.	.	.	.	.	.	.	.	.	.	.	.
4c\	.	8r	.	8r	.	16aa\LL]	.	16aa\LL]	.	.	.	.	.	.	2r	.	2r	.	.	.
.	.	.	.	.	.	(16gg\	.	16gg\	.	.	.	.	.	.	.	.	.	.	.	.
.	.	8e\	.	8cc\	.	16ff#\	.	16ff#\	.	.	.	.	.	.	.	.	.	.	.	.
.	.	.	.	.	.	16ee\JJ	.	16ee\JJ	.	.	.	.	.	.	.	.	.	.	.	.
4C\	.	8r	.	8r	.	16dd\LL	.	16dd\LL	.	.	.	.	.	.	.	.	.	.	.	.
.	.	.	.	.	.	16cc\	.	16cc\	.	.	.	.	.	.	.	.	.	.	.	.
.	.	8e\	.	8cc\	.	16b\	.	16b\	.	.	.	.	.	.	.	.	.	.	.	.
.	.	.	.	.	.	16a\JJ)	.	16a\JJ	.	.	.	.	.	.	.	.	.	.	.	.
!	!	!	!	!	!	!LO:LB:g=original	!	!	!	!	!	!	!	!	!	!	!	!	!	!
=64	=64	=64	=64	=64	=64	=64	=64	=64	=64	=64	=64	=64	=64	=64	=64	=64	=64	=64	=64	=64
4D\	.	8d\L	.	8b/L	.	8.ee\L	.	8.ee\	.	.	1r	.	1r	.	4g/	.	4b\	.	1r	.
.	.	8B\J	.	8g/J	.	.	.	.	.	.	.	.	.	.	.	.	.	.	.	.
.	.	.	.	.	.	16dd\Jk	.	16dd\	-te	.	.	.	.	.	.	.	.	.	.	.
4D\	.	8r	.	8r	.	8dd\	.	8dd\	gat	.	.	.	.	.	4r	.	4r	.	.	.
.	.	8B\	.	8g/	.	8r	.	8r	.	.	.	.	.	.	.	.	.	.	.	.
4D\	.	8r	.	8r	.	(4.ee\	.	(4.ee\	e-	.	.	.	.	.	4.cc\	.	4.ee\	.	.	.
!	!	!	!	!LO:TX:b:t=fis	!	!	!	!	!	!	!	!	!	!	!	!	!	!	!	!
.	.	8A\	.	8f#/	.	.	.	.	.	.	.	.	.	.	.	.	.	.	.	.
4D\	.	8r	.	8r	.	.	.	.	.	.	.	.	.	.	.	.	.	.	.	.
!	!	!	!	!LO:TX:b:t=fis	!	!	!	!	!	!	!	!	!	!	!	!	!	!	!	!
.	.	8A\	.	8f#/	.	16dd\LL	.	16dd\LL	.	.	.	.	.	.	16b\LL	.	16dd\LL	.	.	.
.	.	.	.	.	.	16cc\JJ)	.	16cc\JJ)	.	.	.	.	.	.	16a\JJ	.	16cc\JJ	.	.	.
=65	=65	=65	=65	=65	=65	=65	=65	=65	=65	=65	=65	=65	=65	=65	=65	=65	=65	=65	=65	=65
!LO:TX:a:t=P:problem=takty 65-72 zapisane repetycją	!	!LO:TX:a:t=P:problem=takty 65-72 zapisane repetycją	!	!	!	!LO:TX:a:t=P:problem=takty 65-72 zapisane repetycją	!	!	!	!	!	!	!	!	!	!	!	!	!	!
8A\yy	.	8F#/Lyy	.	8r	.	8g\Lyy 8byy	.	8b\	-um	.	1r	.	1r	.	4a/	.	4b\	.	1r	.
8ryy	.	8B/Jyy	.	8g/	.	8g\Jyy 8byy	.	8r	.	.	.	.	.	.	.	.	.	.	.	.
8A\yy	.	8ryy	.	8r	.	8ryy	.	4r	.	.	.	.	.	.	8g/	.	4r	.	.	.
8ryy	.	8B/yy	.	8g/	.	8b\yy	.	.	.	.	.	.	.	.	8r	.	.	.	.	.
8B\yy	.	8ryy	.	8r	.	8ryy	.	4r	.	.	.	.	.	.	4r	.	4r	.	.	.
8ryy	.	8B/yy	.	8g/	.	8b\yy	.	.	.	.	.	.	.	.	.	.	.	.	.	.
8G\yy	.	8ryy	.	8r	.	8ryy	.	8.dd\	in	.	.	.	.	.	8.b\L	.	8dd\L	.	.	.
8ryy	.	8B/yy	.	8g/	.	8b\yy	.	.	.	.	.	.	.	.	.	.	8gg\J	.	.	.
.	.	.	.	.	.	.	.	16gg\	ve-	.	.	.	.	.	16cc\Jk	.	.	.	.	.
!	!	!	!	!	!	!	!	!LO:LB:g=original	!	!	!	!	!	!	!	!	!	!	!	!
=66	=66	=66	=66	=66	=66	=66	=66	=66	=66	=66	=66	=66	=66	=66	=66	=66	=66	=66	=66	=66
!	!	!	!	!	!	!	!	!	!	!	!	!	!	!	!LO:TX:a:t=P:problem=takty 66-74 zapisane repetycją	!	!	!	!	!
4D\yy	.	8ryy	.	8r	.	8ryy	.	(8gg\	-nia-	.	1r	.	1r	.	8b\yy	.	8gg\	.	1r	.
.	.	8A/yy	.	8f#/	.	8a\yy 8ccyy	.	4ff#^\)	.	.	.	.	.	.	4dd\yy	.	4ff#\	.	.	.
4d\yy	.	8ryy	.	8r	.	8ryy	.	.	.	.	.	.	.	.	.	.	.	.	.	.
.	.	8A/yy	.	8f#/	.	8a\yy 8ccyy	.	4b^\	-tur	.	.	.	.	.	4g#X\yy	.	4b\	.	.	.
4D\yy	.	8ryy	.	8r	.	8ryy	.	.	.	.	.	.	.	.	.	.	.	.	.	.
.	.	8A/yy	.	8f#/	.	8a\yy 8ccyy	.	4cc^\	ma-	.	.	.	.	.	4a\yy	.	4cc\	.	.	.
4d\yy	.	8ryy	.	8r	.	8ryy	.	.	.	.	.	.	.	.	.	.	.	.	.	.
.	.	8A/yy	.	8f#/	.	8a\yy 8ccyy	.	8ee\	-nus	.	.	.	.	.	8cc\yy	.	[8ee\	.	.	.
!	!	!	!	!LO:LB:g=original	!	!	!	!	!	!	!	!	!	!	!	!	!	!	!	!
=67	=67	=67	=67	=67	=67	=67	=67	=67	=67	=67	=67	=67	=67	=67	=67	=67	=67	=67	=67	=67
4G\yy	.	8ryy	.	8r	.	8ryy	.	(8ee'\	tu-	.	1r	.	1r	.	8cc\yy	.	8ee\]	.	1r	.
.	.	8B/yy	.	8g/	.	8b\yy	.	4dd\	.	.	.	.	.	.	4b\yy	.	4dd\	.	.	.
4A\yy	.	8ryy	.	8r	.	8ryy	.	.	.	.	.	.	.	.	.	.	.	.	.	.
.	.	8B/yy	.	8g/	.	8b\yy	.	8cc\)	.	.	.	.	.	.	8a\yy	.	8cc\	.	.	.
4B\yy	.	8ryy	.	8r	.	8ryy	.	8cc\	-a	.	.	.	.	.	8g\yy	.	8b\	.	.	.
.	.	8B/yy	.	8g/	.	8b\yy	.	8r	.	.	.	.	.	.	8ryy	.	8r	.	.	.
4G\yy	.	8ryy	.	8r	.	8ryy	.	8dd\	om-	.	.	.	.	.	8b\Lyy	.	8dd\L	.	.	.
.	.	8B/yy	.	8g/	.	8b\yy	.	[8gg\	-ni-	.	.	.	.	.	8b\Jyy	.	8gg\J	.	.	.
!	!	!	!	!	!	!	!	!	!	!	!	!	!	!	!	!	!LO:LB:g=original	!	!	!
=68	=68	=68	=68	=68	=68	=68	=68	=68	=68	=68	=68	=68	=68	=68	=68	=68	=68	=68	=68	=68
4D\yy	.	8ryy	.	8r	.	8ryy	.	8gg\]	-bus	.	1r	.	1r	.	8b\yy	.	8gg\	.	1r	.
.	.	8A/yy	.	8f#/	.	8a\yy	.	4ff#^\	i-	.	.	.	.	.	4dd\yy	.	4ff#\	.	.	.
4d\yy	.	8ryy	.	8r	.	8ryy	.	.	.	.	.	.	.	.	.	.	.	.	.	.
.	.	8A/yy	.	8f#/	.	8a\yy	.	4b^\	-ni-	.	.	.	.	.	[8g#X\yy	.	4b\	.	.	.
4D\yy	.	8ryy	.	8r	.	8ryy	.	.	.	.	.	.	.	.	8g#\]yy	.	.	.	.	.
.	.	8A/yy	.	8f#/	.	8a\yy	.	4cc^\	-mi-	.	.	.	.	.	4a\yy	.	4cc\	.	.	.
4d\yy	.	8ryy	.	8r	.	8ryy	.	.	.	.	.	.	.	.	.	.	.	.	.	.
.	.	8A/yy	.	8f#/	.	8a\yy	.	8ee\	-cis	.	.	.	.	.	8cc\yy	.	8ee\	.	.	.
=69	=69	=69	=69	=69	=69	=69	=69	=69	=69	=69	=69	=69	=69	=69	=69	=69	=69	=69	=69	=69
4G\yy	.	8ryy	.	8r	.	8ryy	.	(8ee\	e-	.	1r	.	1r	.	8cc\yy	.	8ee\	.	1r	.
.	.	8B/yy	.	8g/	.	8b\yy	.	4dd\	.	.	.	.	.	.	4b\yy	.	4dd\	.	.	.
4A\yy	.	8ryy	.	8r	.	8ryy	.	.	.	.	.	.	.	.	.	.	.	.	.	.
.	.	8B/yy	.	8g/	.	8b\yy	.	8cc\)	.	.	.	.	.	.	8a\yy	.	8cc\	.	.	.
4B\yy	.	8ryy	.	8r	.	8ryy	.	8b\	-jus	.	.	.	.	.	8g\yy	.	8b\	.	.	.
.	.	8B/yy	.	8g/	.	8b\yy	.	8r	.	.	.	.	.	.	8ryy	.	8r	.	.	.
!	!	!	!	!	!	!	!	!LO:LB:g=original	!	!	!	!	!	!	!	!	!	!	!	!
4G\yy	.	8ryy	.	8r	.	8ryy	.	8dd\	et	.	.	.	.	.	8b\Lyy	.	8dd\L	.	.	.
.	.	8B/yy	.	8g/	.	8b\yy	.	8ee\	dex-	.	.	.	.	.	8cc\Jyy	.	8ee\J	.	.	.
=70	=70	=70	=70	=70	=70	=70	=70	=70	=70	=70	=70	=70	=70	=70	=70	=70	=70	=70	=70	=70
4G#X\yy	.	8ryy	.	8r	.	8ryy	.	8ffn\	-te-	.	1r	.	1r	.	8dd\yy	.	8ffn\	.	1r	.
.	.	8B/yy	.	8g#X/	.	8dd\yy	.	4ee\	-ra	.	.	.	.	.	4cc\yy	.	4ee\	.	.	.
4B\yy	.	8ryy	.	8r	.	8ryy	.	.	.	.	.	.	.	.	.	.	.	.	.	.
.	.	8B/yy	.	8g#/	.	8dd\yy	.	4ff\	.	.	.	.	.	.	4dd\yy	.	4ff\	.	.	.
4G#\yy	.	8ryy	.	8r	.	8ryy	.	.	.	.	.	.	.	.	.	.	.	.	.	.
.	.	8B/yy	.	8g#/	.	8dd\yy	.	4ee\	.	.	.	.	.	.	4cc\yy	.	4ee\	.	.	.
4E\yy	.	8ryy	.	8r	.	8ryy	.	.	.	.	.	.	.	.	.	.	.	.	.	.
.	.	8B/yy	.	8g#/	.	8dd\yy	.	8dd\	tu-	.	.	.	.	.	8b\yy	.	8dd\	.	.	.
=71	=71	=71	=71	=71	=71	=71	=71	=71	=71	=71	=71	=71	=71	=71	=71	=71	=71	=71	=71	=71
4A\yy	.	8c\Lyy	.	8a\L	.	8cc\yy	.	8cc\	-a	.	1r	.	1r	.	4a/yy	.	4cc\	.	1r	.
.	.	8e\Jyy	.	8cc\J	.	8ryy	.	8r	.	.	.	.	.	.	.	.	.	.	.	.
4B\yy	.	8ryy	.	8r	.	[4aa\yy	.	[4aa\	pro-	.	.	.	.	.	4ryy	.	4r	.	.	.
.	.	8e\yy	.	8cc\	.	.	.	.	.	.	.	.	.	.	.	.	.	.	.	.
4c\yy	.	8ryy	.	8r	.	16aa\LL]yy	.	16aa\LL]	.	.	.	.	.	.	2ryy	.	2r	.	.	.
.	.	.	.	.	.	(16gg\yy	.	16gg\	.	.	.	.	.	.	.	.	.	.	.	.
.	.	8e\yy	.	8cc\	.	16ff#\yy	.	16ff#\	.	.	.	.	.	.	.	.	.	.	.	.
.	.	.	.	.	.	16ee\JJyy	.	16ee\JJ	.	.	.	.	.	.	.	.	.	.	.	.
4C\yy	.	8ryy	.	8r	.	16dd\LLyy	.	(16dd\LL	.	.	.	.	.	.	.	.	.	.	.	.
.	.	.	.	.	.	16cc\yy	.	16cc\	.	.	.	.	.	.	.	.	.	.	.	.
.	.	8e\yy	.	8cc\	.	16b\yy	.	16b\	.	.	.	.	.	.	.	.	.	.	.	.
.	.	.	.	.	.	16a\JJ)yy	.	16a\JJ)	.	.	.	.	.	.	.	.	.	.	.	.
!	!	!	!	!LO:LB:g=original	!	!	!	!	!	!	!	!	!	!	!	!	!	!	!	!
=72	=72	=72	=72	=72	=72	=72	=72	=72	=72	=72	=72	=72	=72	=72	=72	=72	=72	=72	=72	=72
4D\yy	.	8d\Lyy	.	8b\L	.	8.ee\Lyy	.	8.ee\	.	.	1r	.	1r	.	4g/yy	.	4b'\	.	1r	.
.	.	8B\Jyy	.	8g\J	.	.	.	.	.	.	.	.	.	.	.	.	.	.	.	.
.	.	.	.	.	.	16dd\Jkyy	.	16dd\	-te-	.	.	.	.	.	.	.	.	.	.	.
4D\yy	.	8ryy	.	8r	.	8dd\yy	.	8dd\	-gat	.	.	.	.	.	4ryy	.	4r	.	.	.
.	.	8B\yy	.	8g\	.	8ryy	.	8r	.	.	.	.	.	.	.	.	.	.	.	.
4D\yy	.	8ryy	.	8r	.	(4.ee\yy	.	4.ee\	e-	.	.	.	.	.	4.cc\yy	.	4.ee\	.	.	.
.	.	8A\yy	.	8f#/	.	.	.	.	.	.	.	.	.	.	.	.	.	.	.	.
4D\yy	.	8ryy	.	8r	.	.	.	.	.	.	.	.	.	.	.	.	.	.	.	.
.	.	8A\yy	.	8f#/	.	16dd\LLyy	.	16dd\LL	.	.	.	.	.	.	16b\LLyy	.	16dd\LL	.	.	.
.	.	.	.	.	.	16cc\JJ)yy	.	16cc\JJ	.	.	.	.	.	.	16a\JJyy	.	16cc\JJ	.	.	.
!	!	!	!	!	!	!	!	!LO:LB:g=original	!	!	!	!	!	!	!	!	!	!	!	!
=73	=73	=73	=73	=73	=73	=73	=73	=73	=73	=73	=73	=73	=73	=73	=73	=73	=73	=73	=73	=73
*	*	*	*	*	*	*^	*	*	*	*	*	*	*	*	*	*	*	*	*	*
4G\	.	8r	.	8r	.	4cc\	2ryy	.	4cc\	.	.	1r	.	1r	.	4a/yy	.	4cc\	.	1r	.
.	.	8B\	.	8g/	.	.	.	.	.	.	.	.	.	.	.	.	.	.	.	.	.
4A\	.	8r	.	8r	.	8b\	.	.	8b\	-eum	.	.	.	.	.	8g/yy	.	8b\	.	.	.
.	.	8B\	.	8g/	.	8re	.	.	8r	.	.	.	.	.	.	8ryy	.	8r	.	.	.
4B\	.	8r	.	8r	.	8r	8ryy	.	4r	.	.	.	.	.	.	4ryy	.	4r	.	.	.
.	.	8B\	.	8g/	.	8b\	8rccc	.	.	.	.	.	.	.	.	.	.	.	.	.	.
4G\	.	8r	.	8r	.	8re	8.dd/L	.	8.dd\L	et	.	.	.	.	.	8.b\Lyy	.	8dd\L	.	.	.
.	.	8B\	.	8g/	.	8b\	.	.	.	.	.	.	.	.	.	.	.	8ee\J	.	.	.
.	.	.	.	.	.	.	16ee/Jk	.	16ee\Jk	dex	.	.	.	.	.	16cc\Jkyy	.	.	.	.	.
!	!	!LO:LB:g=original	!	!	!	!	!	!	!	!	!	!	!	!	!	!	!	!LO:LB:g=original	!	!	!
=74	=74	=74	=74	=74	=74	=74	=74	=74	=74	=74	=74	=74	=74	=74	=74	=74	=74	=74	=74	=74	=74
4G#X\	.	8r	.	8r	.	8re	8ffn/	.	8ffn\	ter-	.	1r	.	1r	.	8dd\	.	8ffn\	.	1r	.
.	.	8B\	.	8g#X/	.	8b\	4ee/	.	4ee\	-ra	.	.	.	.	.	4cc\	.	4ee\	.	.	.
4B\	.	8r	.	8r	.	8re	.	.	.	.	.	.	.	.	.	.	.	.	.	.	.
.	.	8B\	.	8g#/	.	8b\	4ff/	.	4ff\	.	.	.	.	.	.	4dd\	.	4ff\	.	.	.
4G#\	.	8r	.	8r	.	8re	.	.	.	.	.	.	.	.	.	.	.	.	.	.	.
.	.	8B\	.	8g#/	.	8b\	4ee/	.	4ee\	.	.	.	.	.	.	4cc\	.	4ee\	.	.	.
4E\	.	8r	.	8r	.	8re	.	.	.	.	.	.	.	.	.	.	.	.	.	.	.
.	.	8B\	.	8g#/	.	8b\	8dd/	.	8dd\	tu-	.	.	.	.	.	8b\	.	8dd\	.	.	.
!LO:LB:g=original	!	!	!	!	!	!	!	!	!	!	!	!	!	!	!	!	!	!	!	!	!
=75	=75	=75	=75	=75	=75	=75	=75	=75	=75	=75	=75	=75	=75	=75	=75	=75	=75	=75	=75	=75	=75
4A\	.	8c\L	.	8a\L	.	8cc/	8a\L	.	8cc\	-a	.	1r	.	1r	.	4a/	.	4cc\	.	1r	.
.	.	8e\J	.	8cc\J	.	8ryy	8ee\J	.	8r	.	.	.	.	.	.	.	.	.	.	.	.
4B\	.	8r	.	8r	.	4aa/	8r	.	[4aa\	pro-	.	.	.	.	.	4r	.	4r	.	.	.
.	.	8e\	.	8cc\	.	.	8ee\	.	.	.	.	.	.	.	.	.	.	.	.	.	.
4c\	.	8r	.	8r	.	16aa/LL	8r	.	16aa\LL]	.	.	.	.	.	.	2r	.	2r	.	.	.
.	.	.	.	.	.	16bb/	.	.	16bb\	.	.	.	.	.	.	.	.	.	.	.	.
.	.	8e\	.	8cc\	.	16ccc/	8ee\	.	16ccc\	.	.	.	.	.	.	.	.	.	.	.	.
.	.	.	.	.	.	16bb/JJ	.	.	16bb\JJ	.	.	.	.	.	.	.	.	.	.	.	.
4C/	.	8r	.	8r	.	16aa/LL	8r	.	(16aa\LL	.	.	.	.	.	.	.	.	.	.	.	.
.	.	.	.	.	.	16gg/	.	.	16gg\	.	.	.	.	.	.	.	.	.	.	.	.
.	.	8e\	.	8cc\	.	16ff#/	8ee\	.	16ff#\	-te-	.	.	.	.	.	.	.	.	.	.	.
.	.	.	.	.	.	16ee/JJ	.	.	16ee\JJ)	.	.	.	.	.	.	.	.	.	.	.	.
!	!	!	!	!LO:LB:g=original	!	!LO:LB:g=original	!	!	!LO:LB:g=original	!	!	!	!	!	!	!LO:LB:g=original	!	!LO:TX:b:t=V.ʃ.	!	!	!
=76	=76	=76	=76	=76	=76	=76	=76	=76	=76	=76	=76	=76	=76	=76	=76	=76	=76	=76	=76	=76	=76
!	!	!	!	!	!	!	!	!	!	!	!	!	!	!	!	!LO:TX:a:t=1.	!	!LO:TX:a:t=1	!	!	!
4D\	.	8d\	.	8r	.	4dd/	8r	.	8dd\	-gat	.	1r	.	1r	.	1r	.	1r	.	1r	.
.	.	8r	.	8b\	.	.	8dd\	.	8r	.	.	.	.	.	.	.	.	.	.	.	.
4D\	.	8d\	.	8r	.	4gg/	8r	.	[4gg\	e-	.	.	.	.	.	.	.	.	.	.	.
.	.	8r	.	8b\	.	.	8dd\	.	.	.	.	.	.	.	.	.	.	.	.	.	.
4D\	.	8c\	.	8r	.	16gg/LL	8r	.	16gg\LL]	.	.	.	.	.	.	.	.	.	.	.	.
.	.	.	.	.	.	16ff#/	.	.	16ff#\	.	.	.	.	.	.	.	.	.	.	.	.
.	.	8r	.	8f#\ 8a	.	16ee/	8cc\	.	16ee\	.	.	.	.	.	.	.	.	.	.	.	.
.	.	.	.	.	.	16dd/JJ	.	.	16dd\JJ	.	.	.	.	.	.	.	.	.	.	.	.
4D\	.	8c\	.	8r	.	16dd/LL	8r	.	(16dd\LL	.	.	.	.	.	.	.	.	.	.	.	.
.	.	.	.	.	.	16cc/	.	.	16cc\JJ)	.	.	.	.	.	.	.	.	.	.	.	.
.	.	8r	.	8f#\ 8a	.	16b/	8cc\	.	(16b\LL	-um	.	.	.	.	.	.	.	.	.	.	.
.	.	.	.	.	.	16a/JJ	.	.	16a\JJ)	.	.	.	.	.	.	.	.	.	.	.	.
*	*	*	*	*	*	*v	*v	*	*	*	*	*	*	*	*	*	*	*	*	*	*
!	!	!	!	!	!	!	!	!	!	!	!LO:LB:g=original	!	!	!	!	!	!LO:PB:g=original	!	!	!
=77	=77	=77	=77	=77	=77	=77	=77	=77	=77	=77	=77	=77	=77	=77	=77	=77	=77	=77	=77	=77
*^	*	*	*	*	*	*	*	*	*	*	*	*	*	*	*	*	*	*	*	*
*2\left	*	*	*tremolo	*	*	*	*tremolo	*	*	*	*	*	*	*	*	*	*	*	*	*	*
!LO:TX:b:t=collarco.	!	!	!	!LO:DY:b	!	!	!	!	!	!	!	!	!LO:DY:b:t=p&colon;	!	!LO:DY:b:t=p&colon;	!	!LO:DY:b	!	!LO:DY:b	!	!
8GG/L	2GG\	ff	16gLL	ff	16b\ 16ggLL	.	16ddd\LL	.	2dd\	et	.	2G/	p	2g\	p	2b\	f	2dd\	f	2ddd\	.
.	.	.	16g	.	16b\ 16gg	.	16ddd\	.	.	.	.	.	.	.	.	.	.	.	.	.	.
8G/	.	.	16g	.	16b\ 16gg	.	16ddd\	.	.	.	.	.	.	.	.	.	.	.	.	.	.
.	.	.	16g	.	16b\ 16gg	.	16ddd\JJ	.	.	.	.	.	.	.	.	.	.	.	.	.	.
8G/	.	.	16g	.	16b\ 16gg	.	16ddd\LL	.	.	.	.	.	.	.	.	.	.	.	.	.	.
.	.	.	16g	.	16b\ 16gg	.	16ddd\	.	.	.	.	.	.	.	.	.	.	.	.	.	.
8G/J	.	.	16g	.	16b\ 16gg	.	16ddd\	.	.	.	.	.	.	.	.	.	.	.	.	.	.
.	.	.	16g	.	16b\ 16ggJJ	.	16ddd\JJ	.	.	.	.	.	.	.	.	.	.	.	.	.	.
8C/L	2C\	.	16g	.	16cc\ 16ggLL	.	16eee\LL	.	2ee\	.	.	2G/	.	2g\	.	2cc\	.	2ee\	.	2eee\	.
.	.	.	16g	.	16cc\ 16gg	.	16eee\	.	.	.	.	.	.	.	.	.	.	.	.	.	.
8E/	.	.	16g	.	16cc\ 16gg	.	16eee\	.	.	.	.	.	.	.	.	.	.	.	.	.	.
.	.	.	16g	.	16cc\ 16gg	.	16eee\	.	.	.	.	.	.	.	.	.	.	.	.	.	.
8G/	.	.	16g	.	16cc\ 16gg	.	16eee\	.	.	.	.	.	.	.	.	.	.	.	.	.	.
.	.	.	16g	.	16cc\ 16gg	.	16eee\	.	.	.	.	.	.	.	.	.	.	.	.	.	.
8c/J	.	.	16g	.	16cc\ 16gg	.	16eee\	.	.	.	.	.	.	.	.	.	.	.	.	.	.
.	.	.	16gJJ	.	16cc\ 16ggJJ	.	16eee\JJ	.	.	.	.	.	.	.	.	.	.	.	.	.	.
*v	*v	*	*	*	*	*	*	*	*	*	*	*	*	*	*	*	*	*	*	*	*
=78	=78	=78	=78	=78	=78	=78	=78	=78	=78	=78	=78	=78	=78	=78	=78	=78	=78	=78	=78	=78
*^	*	*	*	*	*	*	*	*	*	*	*	*	*	*	*	*	*	*	*	*
*	*	*	*	*	*	*	*8va	*	*	*	*	*	*	*	*	*	*	*	*	*	*
!	!	!	!	!	!	!	!LO:TX:a:t=P:problem=nuty w taktach 78-82 oktawę wyżej	!	!	!	!	!	!	!	!	!	!	!	!	!	!
8D/L	2D\	.	16g\LL	.	16b\ 16ggLL	.	16ddd\LL	.	4.dd\	dex-	.	2G/	.	2g\	.	2b\	.	2dd\	.	2ddd\	.
.	.	.	16g\	.	16b\ 16gg	.	16ddd\	.	.	.	.	.	.	.	.	.	.	.	.	.	.
8G/	.	.	16g\	.	16b\ 16gg	.	16ddd\	.	.	.	.	.	.	.	.	.	.	.	.	.	.
.	.	.	16g\	.	16b\ 16gg	.	16ddd\	.	.	.	.	.	.	.	.	.	.	.	.	.	.
8B/	.	.	16g\	.	16b\ 16gg	.	16ddd\	.	.	.	.	.	.	.	.	.	.	.	.	.	.
.	.	.	16g\	.	16b\ 16gg	.	16ddd\	.	.	.	.	.	.	.	.	.	.	.	.	.	.
8d/J	.	.	16g\	.	16b\ 16gg	.	16ddd\	.	8dd\	-te-	.	.	.	.	.	.	.	.	.	.	.
.	.	.	16g\JJ	.	16b\ 16ggJJ	.	16ddd\JJ	.	.	.	.	.	.	.	.	.	.	.	.	.	.
8D/L	2D\	.	16cc\LL	.	16dd\ 16aaLL	.	16fff#\LL	.	4.ff#\	-ra	.	2d/	.	2a\	.	2a\	.	2dd\	.	2eee\	.
.	.	.	16cc\	.	16dd\ 16aa	.	16fff#\	.	.	.	.	.	.	.	.	.	.	.	.	.	.
8G/	.	.	16cc\	.	16dd\ 16aa	.	16fff#\	.	.	.	.	.	.	.	.	.	.	.	.	.	.
.	.	.	16cc\	.	16dd\ 16aa	.	16fff#\	.	.	.	.	.	.	.	.	.	.	.	.	.	.
8B/	.	.	16cc\	.	16dd\ 16aa	.	16fff#\	.	.	.	.	.	.	.	.	.	.	.	.	.	.
.	.	.	16cc\	.	16dd\ 16aa	.	16fff#\	.	.	.	.	.	.	.	.	.	.	.	.	.	.
8d/J	.	.	16cc\	.	16dd\ 16aa	.	16fff#\	.	8ff#\	.	.	.	.	.	.	.	.	.	.	.	.
.	.	.	16cc\JJ	.	16dd\ 16aaJJ	.	16fff#\JJ	.	.	.	.	.	.	.	.	.	.	.	.	.	.
=79	=79	=79	=79	=79	=79	=79	=79	=79	=79	=79	=79	=79	=79	=79	=79	=79	=79	=79	=79	=79	=79
8GG/L	2GG\	.	16b\LL	.	16dd\ 16bbLL	.	16ggg\LL	.	2gg\	tu-	.	2G/	.	2g\	.	2b\	.	2dd\	.	2ggg\	.
.	.	.	16b\	.	16dd\ 16bb	.	16ggg\	.	.	.	.	.	.	.	.	.	.	.	.	.	.
8G/	.	.	16b\	.	16dd\ 16bb	.	16ggg\	.	.	.	.	.	.	.	.	.	.	.	.	.	.
.	.	.	16b\	.	16dd\ 16bb	.	16ggg\	.	.	.	.	.	.	.	.	.	.	.	.	.	.
8G/	.	.	16b\	.	16dd\ 16bb	.	16ggg\	.	.	.	.	.	.	.	.	.	.	.	.	.	.
.	.	.	16b\	.	16dd\ 16bb	.	16ggg\	.	.	.	.	.	.	.	.	.	.	.	.	.	.
8G/J	.	.	16b\	.	16dd\ 16bb	.	16ggg\	.	.	.	.	.	.	.	.	.	.	.	.	.	.
.	.	.	16b\JJ	.	16dd\ 16bbJJ	.	16ggg\JJ	.	.	.	.	.	.	.	.	.	.	.	.	.	.
8C/L	2C\	.	16g\LL	.	16cc\ 16ggLL	.	16eee\LL	.	2ee\	-a	.	2G/	.	2g\	.	2cc\	.	2ee\	.	2eee\	.
.	.	.	16g\	.	16cc\ 16gg	.	16eee\	.	.	.	.	.	.	.	.	.	.	.	.	.	.
8E/	.	.	16g\	.	16cc\ 16gg	.	16eee\	.	.	.	.	.	.	.	.	.	.	.	.	.	.
.	.	.	16g\	.	16cc\ 16gg	.	16eee\	.	.	.	.	.	.	.	.	.	.	.	.	.	.
8G/	.	.	16g\	.	16cc\ 16gg	.	16eee\	.	.	.	.	.	.	.	.	.	.	.	.	.	.
.	.	.	16g\	.	16cc\ 16gg	.	16eee\	.	.	.	.	.	.	.	.	.	.	.	.	.	.
8c/J	.	.	16g\	.	16cc\ 16gg	.	16eee\	.	.	.	.	.	.	.	.	.	.	.	.	.	.
.	.	.	16g\JJ	.	16cc\ 16ggJJ	.	16eee\JJ	.	.	.	.	.	.	.	.	.	.	.	.	.	.
!LO:LB:g=original	!	!	!LO:LB:g=original	!	!	!	!	!	!	!	!	!	!	!	!	!	!	!	!	!	!
=80	=80	=80	=80	=80	=80	=80	=80	=80	=80	=80	=80	=80	=80	=80	=80	=80	=80	=80	=80	=80	=80
8D/L	2D\	.	16g\LL	.	16b\ 16ggLL	.	16ddd\LL	.	2dd\	.	.	2G/	.	2g\	.	2b\	.	2dd\	.	2ddd\	.
.	.	.	16g\	.	16b\ 16gg	.	16ddd\	.	.	.	.	.	.	.	.	.	.	.	.	.	.
8G/	.	.	16g\	.	16b\ 16gg	.	16ddd\	.	.	.	.	.	.	.	.	.	.	.	.	.	.
.	.	.	16g\	.	16b\ 16gg	.	16ddd\	.	.	.	.	.	.	.	.	.	.	.	.	.	.
8B/	.	.	16g\	.	16b\ 16gg	.	16ddd\	.	.	.	.	.	.	.	.	.	.	.	.	.	.
.	.	.	16g\	.	16b\ 16gg	.	16ddd\	.	.	.	.	.	.	.	.	.	.	.	.	.	.
8d/J	.	.	16g\	.	16b\ 16gg	.	16ddd\	.	.	.	.	.	.	.	.	.	.	.	.	.	.
.	.	.	16g\JJ	.	16b\ 16ggJJ	.	16ddd\JJ	.	.	.	.	.	.	.	.	.	.	.	.	.	.
8D/L	2D\	.	16cc\LL	.	16dd\ 16aaLL	.	16fff#\LL	.	2ff#\	.	.	2d/	.	2a\	.	2a\	.	2dd\	.	2eee\	.
.	.	.	16cc\	.	16dd\ 16aa	.	16fff#\	.	.	.	.	.	.	.	.	.	.	.	.	.	.
8G/	.	.	16cc\	.	16dd\ 16aa	.	16fff#\	.	.	.	.	.	.	.	.	.	.	.	.	.	.
.	.	.	16cc\	.	16dd\ 16aa	.	16fff#\	.	.	.	.	.	.	.	.	.	.	.	.	.	.
8B/	.	.	16cc\	.	16dd\ 16aa	.	16fff#\	.	.	.	.	.	.	.	.	.	.	.	.	.	.
.	.	.	16cc\	.	16dd\ 16aa	.	16fff#\	.	.	.	.	.	.	.	.	.	.	.	.	.	.
8d/J	.	.	16cc\	.	16dd\ 16aa	.	16fff#\	.	.	.	.	.	.	.	.	.	.	.	.	.	.
.	.	.	16cc\JJ	.	16dd\ 16aaJJ	.	16fff#\JJ	.	.	.	.	.	.	.	.	.	.	.	.	.	.
!	!	!	!	!	!	!	!	!	!LO:LB:g=original	!	!	!	!	!LO:LB:g=original	!	!	!	!	!	!LO:LB:g=original	!
=81	=81	=81	=81	=81	=81	=81	=81	=81	=81	=81	=81	=81	=81	=81	=81	=81	=81	=81	=81	=81	=81
8G/L	4GG\	.	16b\LL	.	16dd\ 16bbLL	.	16ggg\LL	.	4gg\	.	.	4G/	.	4g\	.	4b\	.	4dd\	.	4ggg\	.
.	.	.	16b\	.	16dd\ 16bb	.	16ggg\	.	.	.	.	.	.	.	.	.	.	.	.	.	.
8G/J	.	.	16b\	.	16dd\ 16bb	.	16ggg\	.	.	.	.	.	.	.	.	.	.	.	.	.	.
.	.	.	16b\JJ	.	16dd\ 16bbJJ	.	16ggg\JJ	.	.	.	.	.	.	.	.	.	.	.	.	.	.
8c/L	4C\	.	16g\LL	.	16cc\ 16ggLL	.	16eee\LL	.	4ee\	.	.	4G/	.	4g\	.	4cc\	.	4ee\	.	4eee\	.
.	.	.	16g\	.	16cc\ 16gg	.	16eee\	.	.	.	.	.	.	.	.	.	.	.	.	.	.
8c/J	.	.	16g\	.	16cc\ 16gg	.	16eee\	.	.	.	.	.	.	.	.	.	.	.	.	.	.
.	.	.	16g\JJ	.	16cc\ 16ggJJ	.	16eee\JJ	.	.	.	.	.	.	.	.	.	.	.	.	.	.
8d/L	4D\	.	16g\LL	.	16b\ 16ggLL	.	16ddd\LL	.	4dd\	.	.	4G/	.	4g\	.	4b\	.	4dd\	.	4ddd\	.
.	.	.	16g\	.	16b\ 16gg	.	16ddd\	.	.	.	.	.	.	.	.	.	.	.	.	.	.
8d/J	.	.	16g\	.	16b\ 16gg	.	16ddd\	.	.	.	.	.	.	.	.	.	.	.	.	.	.
.	.	.	16g\JJ	.	16b\ 16ggJJ	.	16ddd\JJ	.	.	.	.	.	.	.	.	.	.	.	.	.	.
8D/L	4D\	.	16cc\LL	.	16dd\ 16aaLL	.	16fff#\LL	.	4ff#\	.	.	4d/	.	4a\	.	4a\	.	4dd\	.	4fff#\	.
.	.	.	16cc\	.	16dd\ 16aa	.	16fff#\	.	.	.	.	.	.	.	.	.	.	.	.	.	.
8D/J	.	.	16cc\	.	16dd\ 16aa	.	16fff#\	.	.	.	.	.	.	.	.	.	.	.	.	.	.
.	.	.	16cc\JJ	.	16dd\ 16aaJJ	.	16fff#\JJ	.	.	.	.	.	.	.	.	.	.	.	.	.	.
!	!	!	!	!	!LO:LB:g=original	!	!LO:LB:g=original	!	!	!	!	!	!	!	!	!	!	!	!	!	!
=82	=82	=82	=82	=82	=82	=82	=82	=82	=82	=82	=82	=82	=82	=82	=82	=82	=82	=82	=82	=82	=82
8G/L	4GG\	.	16b\LL	.	16dd\ 16bbLL	.	16ggg\LL	.	4gg\	.	.	4G/	.	4g\	.	4b\	.	4dd\	.	4ggg\	.
.	.	.	16b\	.	16dd\ 16bb	.	16ggg\	.	.	.	.	.	.	.	.	.	.	.	.	.	.
8G/J	.	.	16b\	.	16dd\ 16bb	.	16ggg\	.	.	.	.	.	.	.	.	.	.	.	.	.	.
.	.	.	16b\JJ	.	16dd\ 16bbJJ	.	16ggg\JJ	.	.	.	.	.	.	.	.	.	.	.	.	.	.
8c/L	4C\	.	16g\LL	.	16cc\ 16ggLL	.	16eee\LL	.	4ee\	.	.	4G/	.	4g\	.	4cc\	.	4ee\	.	4eee\	.
.	.	.	16g\	.	16cc\ 16gg	.	16eee\	.	.	.	.	.	.	.	.	.	.	.	.	.	.
8c/J	.	.	16g\	.	16cc\ 16gg	.	16eee\	.	.	.	.	.	.	.	.	.	.	.	.	.	.
.	.	.	16g\JJ	.	16cc\ 16ggJJ	.	16eee\JJ	.	.	.	.	.	.	.	.	.	.	.	.	.	.
8d/L	4D\	.	16g\LL	.	16b\ 16ggLL	.	16ddd\LL	.	4dd\	.	.	4G/	.	4g\	.	4b\	.	4dd\	.	4ddd\	.
.	.	.	16g\	.	16b\ 16gg	.	16ddd\	.	.	.	.	.	.	.	.	.	.	.	.	.	.
8d/J	.	.	16g\	.	16b\ 16gg	.	16ddd\	.	.	.	.	.	.	.	.	.	.	.	.	.	.
.	.	.	16g\JJ	.	16b\ 16ggJJ	.	16ddd\JJ	.	.	.	.	.	.	.	.	.	.	.	.	.	.
!	!	!	!	!	!LO:TX:a:t=loco	!	!LO:TX:a:t=loco	!	!	!	!	!	!	!	!	!	!	!	!	!	!
8D/L	4D\	.	16cc\LL	.	16dd\ 16aaLL	.	16fff#\LL	.	4ff#\	.	.	4d/	.	4a\	.	4a\	.	4dd\	.	4fff#\	.
.	.	.	16cc\	.	16dd\ 16aa	.	16fff#\	.	.	.	.	.	.	.	.	.	.	.	.	.	.
8D/J	.	.	16cc\	.	16dd\ 16aa	.	16fff#\	.	.	.	.	.	.	.	.	.	.	.	.	.	.
.	.	.	16cc\JJ	.	16dd\ 16aaJJ	.	16fff#\JJ	.	.	.	.	.	.	.	.	.	.	.	.	.	.
*	*	*	*	*	*	*	*Xtremolo	*	*	*	*	*	*	*	*	*	*	*	*	*	*
*	*	*	*	*	*	*	*X8va	*	*	*	*	*	*	*	*	*	*	*	*	*	*
*v	*v	*	*	*	*	*	*	*	*	*	*	*	*	*	*	*	*	*	*	*	*
!	!	!	!	!	!	!	!	!	!	!	!	!	!	!	!LO:LB:g=original	!	!	!	!	!
=83	=83	=83	=83	=83	=83	=83	=83	=83	=83	=83	=83	=83	=83	=83	=83	=83	=83	=83	=83	=83
*	*	*	*	*	*	*^	*	*	*	*	*	*	*	*	*	*	*	*	*	*
*2\right	*	*	*	*	*	*	*	*	*	*	*	*	*	*	*	*	*	*	*	*	*
4GG/	.	4b\	.	4dd\ 4bb	.	(4gg\	4ryy	.	(4.gg\	pro-	.	4G/	.	4g\	.	4b\	.	4dd\	.	4ggg\	.
4r	.	4r	.	4r	.	4re	16aa/LL	.	.	.	.	4r	.	4r	.	4r	.	4r	.	4r	.
.	.	.	.	.	.	.	16bb/JJ)	.	.	.	.	.	.	.	.	.	.	.	.	.	.
.	.	.	.	.	.	.	16bb/LL	.	16aa\LL	.	.	.	.	.	.	.	.	.	.	.	.
.	.	.	.	.	.	.	16aa/	.	16bb\JJ	.	.	.	.	.	.	.	.	.	.	.	.
4C/	.	4a\	.	4a\ 4ee	.	4eee\	16ccc/	.	16bb\LL	.	.	4a\	.	4a\	.	4cc\	.	4ee\	.	4eee\	.
.	.	.	.	.	.	.	16bb/JJ	.	16aa\	.	.	.	.	.	.	.	.	.	.	.	.
.	.	.	.	.	.	.	16aa/LL	.	16ccc\	.	.	.	.	.	.	.	.	.	.	.	.
.	.	.	.	.	.	.	16gg/	.	16bb\JJ	.	.	.	.	.	.	.	.	.	.	.	.
4r	.	4r	.	4r	.	4rc	16ff#/	.	16aa\LL)	.	.	4r	.	4r	.	4r	.	4r	.	4r	.
.	.	.	.	.	.	.	16ee/JJ	.	(16gg\	-te-	.	.	.	.	.	.	.	.	.	.	.
.	.	.	.	.	.	.	8ryy	.	16ff#\)	.	.	.	.	.	.	.	.	.	.	.	.
.	.	.	.	.	.	.	.	.	16ee\JJ	.	.	.	.	.	.	.	.	.	.	.	.
!LO:LB:g=original	!	!	!	!	!	!	!	!	!	!	!	!LO:LB:g=original	!	!	!	!	!	!LO:LB:g=original	!	!	!
=84	=84	=84	=84	=84	=84	=84	=84	=84	=84	=84	=84	=84	=84	=84	=84	=84	=84	=84	=84	=84	=84
4D\	.	4g\	.	4b\ 4gg	.	4ddd\	4dd/	.	8dd\	-gat	.	4B/	.	4g\	.	4dd\	.	4gg\	.	4ddd\	.
.	.	.	.	.	.	.	.	.	8r	.	.	.	.	.	.	.	.	.	.	.	.
4r	.	4r	.	4r	.	4re	4gg/	.	4gg\	.	.	4r	.	4r	.	4r	.	4r	.	4r	.
2D\	.	2d\ 2a	.	2a\ 2ff#	.	8ff#\	16aa/LL	.	(16aa\LL	e-	.	2d/	.	2a\	.	2a/	.	2cc\	.	4fff#\	.
.	.	.	.	.	.	.	16gg/	.	16gg\	.	.	.	.	.	.	.	.	.	.	.	.
.	.	.	.	.	.	4.rc	16ff#/	.	16ff#\	.	.	.	.	.	.	.	.	.	.	.	.
.	.	.	.	.	.	.	16ee/JJ	.	16ee\JJ)	.	.	.	.	.	.	.	.	.	.	.	.
.	.	.	.	.	.	.	16dd/LL	.	(16dd\LL	.	.	.	.	.	.	.	.	.	.	4r	.
.	.	.	.	.	.	.	16cc/	.	16cc\	.	.	.	.	.	.	.	.	.	.	.	.
.	.	.	.	.	.	.	16b/	.	16b\	.	.	.	.	.	.	.	.	.	.	.	.
.	.	.	.	.	.	.	16a/JJ	.	16a\JJ)	.	.	.	.	.	.	.	.	.	.	.	.
*	*	*	*	*	*	*v	*v	*	*	*	*	*	*	*	*	*	*	*	*	*	*
!	!	!	!	!	!	!	!	!LO:LB:g=original	!	!	!	!	!	!	!	!	!	!	!	!
=85	=85	=85	=85	=85	=85	=85	=85	=85	=85	=85	=85	=85	=85	=85	=85	=85	=85	=85	=85	=85
*tremolo	*	*	*	*	*	*	*	*	*	*	*	*	*	*	*	*	*	*	*	*
!	!	!	!	!	!	!	!	!	!	!	!	!LO:DY:b:t=f&colon;	!	!LO:DY:b:t=f&colon;	!	!	!	!	!	!
8GGL	.	16G 16gLL	.	16d 16bLL	.	4gg\	.	4g\	-um	.	4B/	f	4g\	f	4g/	.	4b\	.	4ggg\	.
.	.	16G 16g	.	16d 16b	.	.	.	.	.	.	.	.	.	.	.	.	.	.	.	.
8GG	.	16G 16g	.	16d 16b	.	.	.	.	.	.	.	.	.	.	.	.	.	.	.	.
.	.	16G 16g	.	16d 16b	.	.	.	.	.	.	.	.	.	.	.	.	.	.	.	.
8GG	.	16G 16g	.	16d 16b	.	4r	.	4r	.	.	4r	.	4r	.	4r	.	4r	.	4r	.
.	.	16G 16g	.	16d 16b	.	.	.	.	.	.	.	.	.	.	.	.	.	.	.	.
8GG	.	16G 16g	.	16d 16b	.	.	.	.	.	.	.	.	.	.	.	.	.	.	.	.
.	.	16G 16g	.	16d 16b	.	.	.	.	.	.	.	.	.	.	.	.	.	.	.	.
8GG	.	16G 16g	.	16d 16b	.	16g\LL	.	2r	.	.	4B/	.	4g\	.	4gg\	.	4bb\	.	16gg\LL	.
.	.	16G 16g	.	16d 16b	.	16a\	.	.	.	.	.	.	.	.	.	.	.	.	16aa\	.
8GG	.	16G 16g	.	16d 16b	.	16b\	.	.	.	.	.	.	.	.	.	.	.	.	16bb\	.
.	.	16G 16g	.	16d 16b	.	16cc\JJ	.	.	.	.	.	.	.	.	.	.	.	.	16ccc\JJ	.
8GG	.	16G 16g	.	16d 16b	.	8dd\L	.	.	.	.	4B/	.	4g\	.	4gg\	.	4bb\	.	8ddd\L	.
.	.	16G 16g	.	16d 16b	.	.	.	.	.	.	.	.	.	.	.	.	.	.	.	.
8GGJ	.	16G 16g	.	16d 16b	.	8dd\J	.	.	.	.	.	.	.	.	.	.	.	.	8ddd\J	.
.	.	16G 16gJJ	.	16d 16bJJ	.	.	.	.	.	.	.	.	.	.	.	.	.	.	.	.
=86	=86	=86	=86	=86	=86	=86	=86	=86	=86	=86	=86	=86	=86	=86	=86	=86	=86	=86	=86	=86
!	!	!	!	!	!	!	!	!LO:TX:a:t=6	!	!	!	!LO:DY:b:t=ff&colon;	!	!LO:DY:b:t=ff&colon;	!	!	!	!	!	!
4D\	.	16A 16f#LL	.	16d 16ccLL	.	(8ee^\L	.	00r	.	.	4d/	ff	4a\	ff	4ff#\	.	4aa\	.	(8eee^\L	.
.	.	16A 16f#	.	16d 16cc	.	.	.	.	.	.	.	.	.	.	.	.	.	.	.	.
.	.	16A 16f#	.	16d 16cc	.	8dd\J)	.	.	.	.	.	.	.	.	.	.	.	.	8ddd\J)	.
.	.	16A 16f#	.	16d 16cc	.	.	.	.	.	.	.	.	.	.	.	.	.	.	.	.
4D\	.	16A 16f#	.	16d 16cc	.	(8ee^\L	.	.	.	.	4d/	.	4a\	.	4ff#\	.	4aa\	.	(8eee^\L	.
.	.	16A 16f#	.	16d 16cc	.	.	.	.	.	.	.	.	.	.	.	.	.	.	.	.
.	.	16A 16f#	.	16d 16cc	.	8dd\J)	.	.	.	.	.	.	.	.	.	.	.	.	8ddd\J)	.
.	.	16A 16f#	.	16d 16cc	.	.	.	.	.	.	.	.	.	.	.	.	.	.	.	.
4D\	.	16A 16f#	.	16d 16cc	.	(8ee^\L	.	.	.	.	4d/	.	4a\	.	4ff#\	.	4aa\	.	(8eee^\L	.
.	.	16A 16f#	.	16d 16cc	.	.	.	.	.	.	.	.	.	.	.	.	.	.	.	.
.	.	16A 16f#	.	16d 16cc	.	8dd\J)	.	.	.	.	.	.	.	.	.	.	.	.	8ddd\J)	.
.	.	16A 16f#	.	16d 16cc	.	.	.	.	.	.	.	.	.	.	.	.	.	.	.	.
!	!	!	!	!	!	!LO:LB:g=original	!	!	!	!	!	!	!	!	!	!	!	!	!	!
4D\	.	16A 16f#	.	16d 16cc	.	(8ee^\L	.	.	.	.	4d/	.	4a\	.	4ff#\	.	4aa\	.	(8eee^\L	.
.	.	16A 16f#	.	16d 16cc	.	.	.	.	.	.	.	.	.	.	.	.	.	.	.	.
.	.	16A 16f#	.	16d 16cc	.	8dd\J)	.	.	.	.	.	.	.	.	.	.	.	.	8ddd\J)	.
.	.	16A 16f#JJ	.	16d 16ccJJ	.	.	.	.	.	.	.	.	.	.	.	.	.	.	.	.
!	!	!LO:LB:g=original	!	!	!	!	!	!	!	!	!	!	!LO:LB:g=original	!	!	!	!	!	!LO:LB:g=original	!
=87	=87	=87	=87	=87	=87	=87	=87	=87	=87	=87	=87	=87	=87	=87	=87	=87	=87	=87	=87	=87
8GGL	.	16G 16gLL	.	16d 16bLL	.	(16ee\LL	.	.	.	.	4B/	.	4g\	.	4gg\	.	4bb\	.	16eee\LL	.
.	.	16G 16g	.	16d 16b	.	16dd\	.	.	.	.	.	.	.	.	.	.	.	.	16ddd\	.
8GG	.	16G 16g	.	16d 16b	.	16cc#X\	.	.	.	.	.	.	.	.	.	.	.	.	16ccc#X\	.
.	.	16G 16g	.	16d 16b	.	16dd\JJ)	.	.	.	.	.	.	.	.	.	.	.	.	16ddd\JJ	.
8GG	.	16G 16g	.	16d 16b	.	4b\	.	.	.	.	4r	.	4r	.	4r	.	4r	.	4bb\	.
.	.	16G 16g	.	16d 16b	.	.	.	.	.	.	.	.	.	.	.	.	.	.	.	.
8GG	.	16G 16g	.	16d 16b	.	.	.	.	.	.	.	.	.	.	.	.	.	.	.	.
.	.	16G 16g	.	16d 16b	.	.	.	.	.	.	.	.	.	.	.	.	.	.	.	.
8GG	.	16G 16g	.	16d 16b	.	16g\LL	.	.	.	.	4B/	.	4g\	.	4gg\	.	4bb\	.	16gg\LL	.
.	.	16G 16g	.	16d 16b	.	16a\	.	.	.	.	.	.	.	.	.	.	.	.	16aa\	.
8GG	.	16G 16g	.	16d 16b	.	16b\	.	.	.	.	.	.	.	.	.	.	.	.	16bb\	.
.	.	16G 16g	.	16d 16b	.	16ccn\JJ	.	.	.	.	.	.	.	.	.	.	.	.	16cccn\JJ	.
8GG	.	16G 16g	.	16d 16b	.	8dd\L	.	.	.	.	4B/	.	4g\	.	4gg\	.	4bb\	.	8ddd\L	.
.	.	16G 16g	.	16d 16b	.	.	.	.	.	.	.	.	.	.	.	.	.	.	.	.
8GGJ	.	16G 16g	.	16d 16b	.	8dd\J	.	.	.	.	.	.	.	.	.	.	.	.	8ddd\J	.
.	.	16G 16gJJ	.	16d 16bJJ	.	.	.	.	.	.	.	.	.	.	.	.	.	.	.	.
=88	=88	=88	=88	=88	=88	=88	=88	=88	=88	=88	=88	=88	=88	=88	=88	=88	=88	=88	=88	=88
4D\	.	16A 16f#LL	.	16d 16ccLL	.	(8ee\L	.	.	.	.	4d/	.	4a\	.	4ff#\	.	4aa\	.	8eee\L	.
.	.	16A 16f#	.	16d 16cc	.	.	.	.	.	.	.	.	.	.	.	.	.	.	.	.
.	.	16A 16f#	.	16d 16cc	.	8dd\J)	.	.	.	.	.	.	.	.	.	.	.	.	8ddd\J	.
.	.	16A 16f#	.	16d 16cc	.	.	.	.	.	.	.	.	.	.	.	.	.	.	.	.
4D\	.	16A 16f#	.	16d 16cc	.	(8ee\L	.	.	.	.	4d/	.	4a\	.	4ff#\	.	4aa\	.	8eee\L	.
.	.	16A 16f#	.	16d 16cc	.	.	.	.	.	.	.	.	.	.	.	.	.	.	.	.
.	.	16A 16f#	.	16d 16cc	.	8dd\J)	.	.	.	.	.	.	.	.	.	.	.	.	8ddd\J	.
.	.	16A 16f#	.	16d 16cc	.	.	.	.	.	.	.	.	.	.	.	.	.	.	.	.
4D\	.	16A 16f#	.	16d 16cc	.	(8ee\L	.	.	.	.	4d/	.	4a\	.	4ff#\	.	4aa\	.	8eee\L	.
.	.	16A 16f#	.	16d 16cc	.	.	.	.	.	.	.	.	.	.	.	.	.	.	.	.
.	.	16A 16f#	.	16d 16cc	.	8dd\J)	.	.	.	.	.	.	.	.	.	.	.	.	8ddd\J	.
.	.	16A 16f#	.	16d 16cc	.	.	.	.	.	.	.	.	.	.	.	.	.	.	.	.
4D\	.	16A 16f#	.	16d 16cc	.	(8ee\L	.	.	.	.	4d/	.	4a\	.	4ff#\	.	4aa\	.	8eee\L	.
.	.	16A 16f#	.	16d 16cc	.	.	.	.	.	.	.	.	.	.	.	.	.	.	.	.
.	.	16A 16f#	.	16d 16cc	.	8dd\J)	.	.	.	.	.	.	.	.	.	.	.	.	8ddd\J	.
.	.	16A 16f#JJ	.	16d 16ccJJ	.	.	.	.	.	.	.	.	.	.	.	.	.	.	.	.
*	*	*Xtremolo	*	*Xtremolo	*	*	*	*	*	*	*	*	*	*	*	*	*	*	*	*
!	!	!	!	!	!	!	!	!	!	!	!	!	!	!	!LO:LB:g=original	!	!	!	!	!
=89	=89	=89	=89	=89	=89	=89	=89	=89	=89	=89	=89	=89	=89	=89	=89	=89	=89	=89	=89	=89
8G/L	.	8g\L	.	8d/L 8b	.	8b\L 8gg	.	.	.	.	8G/L	.	8g\L	.	8gg\L	.	8bb\L	.	8ggg\L	.
8GG/	.	16d\L	.	16g/L 16dd	.	16b\L 16gg	.	.	.	.	16G/L	.	16g\L	.	16gg\L	.	16bb\L	.	16ggg\L	.
.	.	16d\JJ	.	16g/JJ 16dd	.	16b\JJ 16gg	.	.	.	.	16G/JJ	.	16g\JJ	.	16gg\JJ	.	16bb\JJ	.	16ggg\JJ	.
8GG/	.	8d\L	.	8g/L 8dd	.	8b\L 8gg	.	.	.	.	8G/L	.	8g\L	.	8gg\L	.	8bb\L	.	8ggg\L	.
8GG/J	.	8d\J	.	8g/J 8dd	.	8b\J 8gg	.	.	.	.	8G/J	.	8g\J	.	8gg\J	.	8bb\J	.	8ggg\J	.
*	*	*tremolo	*	*tremolo	*	*tremolo	*	*	*	*	*	*	*	*	*tremolo	*	*	*	*	*
*	*	*	*	*	*	*	*	*	*	*	*	*	*	*	*	*	*tremolo	*	*tremolo	*
8GG/L	.	8d\L	.	8g/ 8ddL	.	8b\ 8ggL	.	.	.	.	8G/L	.	8g\L	.	8gg\L	.	8bb\L	.	8ggg\L	.
8GG/	.	8d\	.	8g/ 8dd	.	8b\ 8gg	.	.	.	.	8G/	.	8g\	.	8gg\	.	8bb\	.	8ggg\	.
8GG/	.	8d\	.	8g/ 8dd	.	8b\ 8gg	.	.	.	.	8G/	.	8g\	.	8gg\	.	8bb\	.	8ggg\	.
8GG/J	.	8d\J	.	8g/ 8ddJ	.	8b\ 8ggJ	.	.	.	.	8G/J	.	8g\J	.	8gg\J	.	8bb\J	.	8ggg\J	.
*	*	*	*	*	*	*	*	*	*	*	*	*	*	*	*	*	*	*	*Xtremolo	*
*	*	*	*	*	*	*	*	*	*	*	*	*	*	*	*	*	*Xtremolo	*	*	*
*	*	*	*	*	*	*	*	*	*	*	*	*	*	*	*Xtremolo	*	*	*	*	*
*	*	*	*	*	*	*	*	*	*	*	*	*	*Xtremolo	*	*	*	*	*	*	*
*	*	*	*	*	*	*	*	*	*	*	*Xtremolo	*	*	*	*	*	*	*	*	*
*	*	*	*	*	*	*Xtremolo	*	*	*	*	*	*	*	*	*	*	*	*	*	*
*	*	*	*	*Xtremolo	*	*	*	*	*	*	*	*	*	*	*	*	*	*	*	*
*	*	*Xtremolo	*	*	*	*	*	*	*	*	*	*	*	*	*	*	*	*	*	*
*Xtremolo	*	*	*	*	*	*	*	*	*	*	*	*	*	*	*	*	*	*	*	*
!LO:LB:g=original	!	!	!	!LO:LB:g=original	!	!	!	!	!	!	!LO:LB:g=original	!	!	!	!	!	!LO:LB:g=original	!	!	!
=90	=90	=90	=90	=90	=90	=90	=90	=90	=90	=90	=90	=90	=90	=90	=90	=90	=90	=90	=90	=90
[2GG/	.	2f#\	.	2g\ 2dd	.	2b\ 2gg	.	0r	.	.	2G/	.	2g\	.	2gg\	.	2bb\	.	2ggg\	.
2GG/_	.	2g\	.	2g\ 2dd	.	2b\ 2gg	.	.	.	.	2G/	.	2g\	.	2gg\	.	2bb\	.	2ggg\	.
!	!	!	!	!	!	!	!	!	!	!	!	!	!	!	!	!	!	!	!LO:LB:g=original	!
=91	=91	=91	=91	=91	=91	=91	=91	=91	=91	=91	=91	=91	=91	=91	=91	=91	=91	=91	=91	=91
1GG;]	.	1B;	.	1d;	.	1b; 1gg	.	.	.	.	1G;	.	2g;\	.	1g;	.	2dd;\	.	1gg;	.
.	.	.	.	.	.	.	.	.	.	.	.	.	2ryy	.	.	.	2r	.	.	.
!	!	!	!	!	!	!	!	!	!	!	!LO:TX:b:i:t=Fine	!	!	!	!	!	!	!	!	!
=:|!	=:|!	=:|!	=:|!	=:|!;	=:|!	=:|!	=:|!	=:|!	=:|!	=:|!	=:|!	=:|!	=:|!	=:|!	=:|!	=:|!	=:|!	=:|!	=:|!	=:|!
*-	*-	*-	*-	*-	*-	*-	*-	*-	*-	*-	*-	*-	*-	*-	*-	*-	*-	*-	*-	*-
!!!system-decoration: [(g1)][(g2)])][(g3)][(g4)][(g5)]
!!!ENC: Anna Matuszewska
!!!END: 2020-12-27
!!!ENC: Tomasz Grochalski
!!!END: 2020-07-03
!!!YEC: Copyright 2022 Narodowy Instytut Fryderyka Chopina (https://polishscores.org)
!!!YEM: License CC-BY-4.0 (https://creativecommons.org/licenses/by/4.0)
